ProPhoto to sRGB brightness only.cube
# input/output colorspace: ProPhoto, gamma 1.8
# github.com/abpy/gamut-fix, Aaron Buchler
# Gamut compression/mapping
# Saturation (no compression)
# Brightness Input gamut: ProPhoto
# Output gamut: sRGB
LUT_3D_SIZE 5
DOMAIN_MIN 0.000000 0.000000 0.000000
DOMAIN_MAX 0.903226 0.903226 0.903226
0.000000 0.000000 0.000000
0.224464 0.000000 0.000000
0.428409 0.000000 0.000000
0.568162 0.000000 0.000000
0.632658 0.000000 0.000000
0.000000 0.225806 0.000000
0.225806 0.225806 0.000000
0.442013 0.222710 0.000000
0.587691 0.184777 0.000000
0.653232 0.010741 0.000000
0.000000 0.451613 0.000000
0.225806 0.451613 0.000000
0.451613 0.451613 0.000000
0.630018 0.439639 0.000000
0.701921 0.388855 0.000000
0.000000 0.672811 0.000000
0.223154 0.674514 0.000000
0.451329 0.676877 0.000000
0.670474 0.674827 0.000000
0.768293 0.643726 0.000000
0.000000 0.838298 0.000000
0.150815 0.845174 0.000000
0.423854 0.861295 0.000000
0.667618 0.882550 0.000000
0.834529 0.860655 0.000000
0.000000 0.000000 0.225806
0.225806 0.000000 0.225806
0.434851 0.000000 0.224807
0.576541 0.000000 0.218208
0.641388 0.000000 0.202233
0.000000 0.225806 0.225806
0.225806 0.225806 0.225806
0.445942 0.223975 0.225493
0.595526 0.188442 0.219758
0.661736 0.034381 0.204139
0.000000 0.451613 0.225806
0.225806 0.451613 0.225806
0.451613 0.451613 0.225806
0.636210 0.441183 0.222702
0.709879 0.391233 0.208187
0.000000 0.672836 0.224320
0.223171 0.674532 0.224870
0.451333 0.676883 0.225633
0.672926 0.675757 0.225199
0.775676 0.645815 0.212972
0.000000 0.838387 0.198788
0.150945 0.845260 0.201709
0.423907 0.861375 0.208500
0.667649 0.882615 0.217339
0.841392 0.863941 0.208492
0.000000 0.000000 0.451613
0.225806 0.000000 0.451613
0.446122 0.000000 0.450295
0.595899 0.000000 0.444460
0.662080 0.000000 0.434464
0.000000 0.225806 0.451613
0.225806 0.225806 0.451613
0.451048 0.225624 0.451587
0.613685 0.196860 0.447380
0.682073 0.064817 0.437327
0.000000 0.451613 0.451613
0.225806 0.451613 0.451613
0.451613 0.451613 0.451613
0.650063 0.444652 0.450424
0.729203 0.397045 0.442172
0.000000 0.672897 0.450772
0.223214 0.674579 0.451084
0.451341 0.676899 0.451516
0.676528 0.677098 0.451545
0.793544 0.650748 0.445450
0.000000 0.838609 0.436695
0.151267 0.845475 0.438257
0.424038 0.861571 0.441941
0.667725 0.882777 0.446840
0.857730 0.872130 0.443945
0.000000 0.000000 0.675979
0.225256 0.000000 0.676014
0.451316 0.000000 0.676098
0.619350 0.000000 0.652710
0.688928 0.000000 0.639624
0.000000 0.225736 0.676524
0.225466 0.225738 0.676550
0.451431 0.225743 0.676611
0.635488 0.206770 0.659933
0.708765 0.092858 0.645567
0.000000 0.451605 0.677252
0.225744 0.451606 0.677260
0.451581 0.451607 0.677279
0.665401 0.448523 0.672721
0.755464 0.404984 0.658235
0.000000 0.672968 0.676215
0.223129 0.674635 0.676672
0.451339 0.676920 0.677289
0.677419 0.677419 0.677419
0.818760 0.657393 0.670900
0.000000 0.838939 0.666657
0.151717 0.845797 0.667813
0.424233 0.861867 0.670497
0.667840 0.883019 0.674017
0.880044 0.884737 0.674155
0.000000 0.000000 0.863033
0.205760 0.000000 0.863261
0.440556 0.000000 0.863824
0.661870 0.000000 0.864469
0.713912 0.000000 0.798982
0.000000 0.222272 0.867053
0.207809 0.222294 0.867274
0.441669 0.222347 0.867821
0.665996 0.220433 0.868527
0.733691 0.113877 0.807995
0.000000 0.450114 0.876498
0.212588 0.450125 0.876701
0.444291 0.450153 0.877204
0.671794 0.450067 0.877944
0.780344 0.412389 0.829897
0.000000 0.676097 0.889011
0.218402 0.676329 0.889207
0.447705 0.676700 0.889667
0.674789 0.676888 0.890316
0.843476 0.663476 0.861717
0.000000 0.838496 0.868806
0.135595 0.845405 0.871514
0.418732 0.861602 0.878252
0.665525 0.882942 0.888575
0.903221 0.903221 0.903221
