ProPhoto to sRGB.cube
# input/output colorspace: ProPhoto, gamma 1.8
# github.com/abpy/gamut-fix, Aaron Buchler
# Gamut compression/mapping
# Saturation Input gamut: ProPhoto
# Brightness Input gamut: ACEScg
# Output gamut: sRGB
LUT_3D_SIZE 32
0.000000 0.000000 0.000000
0.030158 0.011840 0.004447
0.060315 0.023680 0.008895
0.090473 0.035521 0.013342
0.120631 0.047361 0.017789
0.150789 0.059201 0.022236
0.180946 0.071041 0.026684
0.211104 0.082881 0.031131
0.241260 0.094721 0.035578
0.271369 0.106542 0.040018
0.301331 0.118305 0.044436
0.331026 0.129964 0.048815
0.360313 0.141462 0.053134
0.389040 0.152740 0.057371
0.417043 0.163735 0.061500
0.444155 0.174379 0.065498
0.470218 0.184612 0.069342
0.495084 0.194374 0.073009
0.518628 0.203618 0.076481
0.540753 0.212304 0.079743
0.561391 0.220407 0.082787
0.580510 0.227913 0.085606
0.598106 0.234822 0.088201
0.614207 0.241143 0.090575
0.628863 0.246897 0.092737
0.642144 0.252111 0.094695
0.654133 0.256818 0.096463
0.664924 0.261055 0.098054
0.674612 0.264858 0.099483
0.683294 0.268267 0.100763
0.691065 0.271318 0.101909
0.698014 0.274046 0.102934
0.018427 0.031641 0.010389
0.032529 0.032206 0.010779
0.064605 0.032265 0.011562
0.095249 0.037395 0.014046
0.124456 0.048862 0.018353
0.154001 0.060462 0.022710
0.183730 0.072134 0.027094
0.213568 0.083849 0.031494
0.243478 0.095591 0.035905
0.273396 0.107338 0.040317
0.303204 0.119041 0.044713
0.332767 0.130647 0.049072
0.361938 0.142100 0.053374
0.390557 0.153336 0.057594
0.418458 0.164290 0.061709
0.445472 0.174896 0.065692
0.471438 0.185091 0.069522
0.496209 0.194816 0.073175
0.519661 0.204023 0.076633
0.541696 0.212674 0.079882
0.562248 0.220743 0.082913
0.581283 0.228217 0.085720
0.598802 0.235095 0.088304
0.614830 0.241387 0.090667
0.629418 0.247115 0.092818
0.642638 0.252305 0.094768
0.654572 0.256990 0.096528
0.665312 0.261207 0.098112
0.674956 0.264993 0.099534
0.683598 0.268386 0.100808
0.691333 0.271423 0.101949
0.698252 0.274140 0.102969
0.036854 0.063283 0.020779
0.037356 0.064145 0.021062
0.065057 0.064412 0.021558
0.097073 0.064474 0.022249
0.129210 0.064531 0.023123
0.161396 0.064593 0.024156
0.190497 0.074791 0.028092
0.219588 0.086212 0.032382
0.248912 0.097725 0.036706
0.278373 0.109292 0.041051
0.307811 0.120849 0.045392
0.337058 0.132332 0.049705
0.365947 0.143674 0.053965
0.394304 0.154807 0.058147
0.421954 0.165663 0.062224
0.448726 0.176174 0.066172
0.474454 0.186275 0.069966
0.498992 0.195909 0.073585
0.522215 0.205026 0.077010
0.544027 0.213590 0.080226
0.564364 0.221574 0.083225
0.583195 0.228968 0.086002
0.600521 0.235770 0.088557
0.616368 0.241992 0.090894
0.630791 0.247654 0.093021
0.643859 0.252784 0.094948
0.655655 0.257416 0.096688
0.666272 0.261584 0.098253
0.675805 0.265327 0.099659
0.684349 0.268681 0.100919
0.691997 0.271684 0.102047
0.698839 0.274370 0.103056
0.055281 0.094924 0.031168
0.055645 0.095549 0.031374
0.065831 0.096551 0.031822
0.097586 0.096618 0.032337
0.129572 0.096682 0.032996
0.161665 0.096739 0.033782
0.193815 0.096796 0.034685
0.225997 0.096857 0.035693
0.256929 0.100873 0.037889
0.285736 0.112183 0.042137
0.314649 0.123534 0.046400
0.343445 0.134839 0.050647
0.371925 0.146021 0.054847
0.399900 0.157004 0.058972
0.427183 0.167716 0.062995
0.453595 0.178085 0.066890
0.478969 0.188047 0.070632
0.503158 0.197544 0.074199
0.526038 0.206527 0.077573
0.547516 0.214959 0.080741
0.567531 0.222818 0.083692
0.586055 0.230090 0.086424
0.603091 0.236779 0.088936
0.618669 0.242895 0.091233
0.632843 0.248460 0.093324
0.645683 0.253501 0.095217
0.657274 0.258051 0.096926
0.667706 0.262147 0.098465
0.677074 0.265825 0.099846
0.685471 0.269122 0.101084
0.692990 0.272074 0.102193
0.699717 0.274715 0.103185
0.073708 0.126566 0.041558
0.073997 0.127063 0.041721
0.074712 0.128289 0.042124
0.098313 0.128757 0.042582
0.130114 0.128823 0.043116
0.162083 0.128888 0.043759
0.194145 0.128948 0.044499
0.226265 0.129004 0.045330
0.258421 0.129061 0.046246
0.290599 0.129122 0.047242
0.322708 0.129154 0.048299
0.351663 0.138066 0.051859
0.379641 0.149050 0.055985
0.407138 0.159846 0.060039
0.433954 0.170374 0.063994
0.459905 0.180563 0.067821
0.484823 0.190345 0.071495
0.508559 0.199664 0.074996
0.530993 0.208473 0.078304
0.552037 0.216735 0.081407
0.571634 0.224428 0.084297
0.589759 0.231544 0.086970
0.606419 0.238085 0.089427
0.621647 0.244064 0.091673
0.635499 0.249502 0.093715
0.648045 0.254428 0.095565
0.659370 0.258874 0.097235
0.669563 0.262876 0.098738
0.678717 0.266470 0.100088
0.686925 0.269693 0.101299
0.694276 0.272579 0.102383
0.700856 0.275162 0.103353
0.092135 0.158207 0.051947
0.092377 0.158623 0.052084
0.092976 0.159652 0.052422
0.099223 0.160897 0.052897
0.130817 0.160963 0.053350
0.162643 0.161029 0.053896
0.194600 0.161094 0.054528
0.226640 0.161156 0.055239
0.258735 0.161213 0.056026
0.290867 0.161269 0.056883
0.323020 0.161324 0.057807
0.354970 0.161306 0.058765
0.386304 0.161043 0.059690
0.415855 0.163268 0.061325
0.442123 0.173581 0.065199
0.467526 0.183555 0.068945
0.491893 0.193122 0.072538
0.515083 0.202226 0.075958
0.536978 0.210822 0.079187
0.557496 0.218878 0.082212
0.576585 0.226372 0.085027
0.594227 0.233298 0.087629
0.610432 0.239661 0.090019
0.625237 0.245473 0.092202
0.638699 0.250759 0.094187
0.650891 0.255545 0.095985
0.661895 0.259866 0.097608
0.671800 0.263754 0.099068
0.680697 0.267248 0.100380
0.688677 0.270381 0.101557
0.695827 0.273188 0.102612
0.702229 0.275701 0.103556
0.110562 0.189849 0.062337
0.110771 0.190208 0.062455
0.111289 0.191098 0.062747
0.112067 0.192434 0.063186
0.131662 0.193102 0.063644
0.163331 0.193168 0.064121
0.195172 0.193235 0.064675
0.227121 0.193301 0.065300
0.259143 0.193363 0.065992
0.291218 0.193422 0.066748
0.323330 0.193478 0.067565
0.355427 0.193521 0.068434
0.387103 0.193421 0.069303
0.417901 0.192994 0.070099
0.447468 0.192059 0.070755
0.475517 0.190428 0.071204
0.500078 0.196335 0.073745
0.522634 0.205191 0.077071
0.543903 0.213541 0.080208
0.563808 0.221356 0.083143
0.582307 0.228619 0.085871
0.599387 0.235325 0.088390
0.615065 0.241480 0.090702
0.629381 0.247100 0.092813
0.642393 0.252209 0.094732
0.654174 0.256834 0.096469
0.664808 0.261009 0.098037
0.674382 0.264768 0.099449
0.682983 0.268145 0.100718
0.690701 0.271175 0.101856
0.697619 0.273891 0.102876
0.703817 0.276325 0.103790
0.128989 0.221490 0.072726
0.129174 0.221808 0.072831
0.129632 0.222595 0.073089
0.130321 0.223779 0.073478
0.132642 0.225244 0.073976
0.164135 0.225308 0.074401
0.195850 0.225374 0.074895
0.227700 0.225441 0.075454
0.259644 0.225507 0.076074
0.291653 0.225570 0.076753
0.323711 0.225630 0.077486
0.355806 0.225687 0.078273
0.387766 0.225696 0.079092
0.419021 0.225477 0.079870
0.449103 0.224843 0.080536
0.477668 0.223614 0.081020
0.504452 0.221614 0.081263
0.529262 0.218675 0.081206
0.551687 0.216597 0.081356
0.570899 0.224140 0.084189
0.588731 0.231141 0.086818
0.605177 0.237598 0.089244
0.620260 0.243519 0.091468
0.634024 0.248923 0.093498
0.646531 0.253834 0.095342
0.657853 0.258279 0.097012
0.668073 0.262291 0.098519
0.677275 0.265904 0.099876
0.685546 0.269151 0.101095
0.692971 0.272066 0.102190
0.699630 0.274681 0.103172
0.705599 0.277024 0.104053
0.147416 0.253131 0.083116
0.147582 0.253417 0.083210
0.147994 0.254125 0.083442
0.148614 0.255190 0.083792
0.149423 0.256579 0.084248
0.165045 0.257449 0.084717
0.196625 0.257514 0.085164
0.228371 0.257580 0.085670
0.260229 0.257647 0.086233
0.292168 0.257713 0.086849
0.324166 0.257776 0.087517
0.356210 0.257838 0.088234
0.388276 0.257893 0.088996
0.419962 0.257832 0.089759
0.450616 0.257451 0.090439
0.479787 0.256562 0.090965
0.507156 0.254994 0.091272
0.532501 0.252589 0.091305
0.555685 0.249204 0.091015
0.576643 0.244708 0.090361
0.595376 0.238983 0.089313
0.611536 0.240094 0.090181
0.625962 0.245758 0.092309
0.639119 0.250924 0.094249
0.651070 0.255616 0.096011
0.661888 0.259863 0.097607
0.671653 0.263697 0.099047
0.680449 0.267150 0.100344
0.688358 0.270255 0.101510
0.695462 0.273044 0.102558
0.701838 0.275548 0.103498
0.707559 0.277794 0.104342
0.165842 0.284773 0.093505
0.165994 0.285033 0.093591
0.166369 0.285678 0.093803
0.166934 0.286647 0.094121
0.167672 0.287914 0.094537
0.168570 0.289456 0.095043
0.197493 0.289654 0.095466
0.229126 0.289719 0.095930
0.260894 0.289786 0.096446
0.292758 0.289853 0.097012
0.324692 0.289919 0.097626
0.356682 0.289983 0.098285
0.388715 0.290045 0.098989
0.420684 0.290080 0.099724
0.451917 0.289907 0.100419
0.481769 0.289314 0.100988
0.509824 0.288123 0.101362
0.535809 0.286177 0.101483
0.559563 0.283339 0.101303
0.581012 0.279493 0.100783
0.600157 0.274541 0.099894
0.617062 0.268397 0.098613
0.631835 0.260985 0.096923
0.644618 0.253083 0.095060
0.655967 0.257538 0.096734
0.666240 0.261572 0.098249
0.675516 0.265213 0.099616
0.683874 0.268495 0.100849
0.691395 0.271447 0.101958
0.698154 0.274101 0.102955
0.704226 0.276485 0.103850
0.709678 0.278626 0.104654
0.184269 0.316414 0.103895
0.184409 0.316653 0.103973
0.184754 0.317246 0.104168
0.185273 0.318138 0.104461
0.185952 0.319303 0.104844
0.186779 0.320724 0.105310
0.198446 0.321795 0.105793
0.229962 0.321859 0.106222
0.261634 0.321925 0.106699
0.293419 0.321992 0.107223
0.325286 0.322059 0.107791
0.357218 0.322124 0.108403
0.389200 0.322189 0.109055
0.421222 0.322251 0.109748
0.452941 0.322229 0.110446
0.483514 0.321894 0.111056
0.512349 0.321041 0.111498
0.539086 0.319503 0.111707
0.563519 0.317144 0.111634
0.585556 0.313853 0.111240
0.605196 0.309544 0.110495
0.622507 0.304146 0.109382
0.637607 0.297605 0.107887
0.650646 0.289871 0.106001
0.661794 0.280895 0.103720
0.671228 0.270622 0.101037
0.679632 0.266829 0.100223
0.687525 0.269928 0.101387
0.694632 0.272718 0.102435
0.701026 0.275229 0.103378
0.706775 0.277486 0.104226
0.711943 0.279515 0.104988
0.202696 0.348056 0.114284
0.202825 0.348277 0.114357
0.203145 0.348827 0.114538
0.203627 0.349654 0.114809
0.204256 0.350734 0.115164
0.205024 0.352052 0.115597
0.205922 0.353595 0.116103
0.230873 0.354000 0.116538
0.262445 0.354065 0.116982
0.294146 0.354131 0.117470
0.325944 0.354198 0.118000
0.357815 0.354265 0.118570
0.389744 0.354330 0.119180
0.421720 0.354395 0.119827
0.453684 0.354446 0.120506
0.484938 0.354318 0.121148
0.514623 0.353767 0.121656
0.542223 0.352603 0.121954
0.567455 0.350679 0.121987
0.590192 0.347883 0.121714
0.610424 0.344131 0.121106
0.628220 0.339365 0.120145
0.643710 0.333542 0.118821
0.657057 0.326631 0.117130
0.668444 0.318606 0.115070
0.678062 0.309439 0.112641
0.686096 0.299095 0.109842
0.692723 0.287523 0.106668
0.698106 0.274654 0.103113
0.704059 0.276420 0.103826
0.709469 0.278544 0.104623
0.714339 0.280456 0.105341
0.221123 0.379697 0.124674
0.221244 0.379904 0.124742
0.221542 0.380416 0.124910
0.221991 0.381188 0.125163
0.222579 0.382197 0.125495
0.223296 0.383427 0.125899
0.224135 0.384868 0.126372
0.231860 0.386141 0.126872
0.263323 0.386205 0.127288
0.294938 0.386270 0.127745
0.326662 0.386337 0.128242
0.358470 0.386404 0.128777
0.390343 0.386470 0.129349
0.422271 0.386536 0.129957
0.454242 0.386601 0.130600
0.486001 0.386609 0.131253
0.516546 0.386318 0.131819
0.545106 0.385497 0.132205
0.571263 0.383978 0.132344
0.594827 0.381636 0.132190
0.615762 0.378387 0.131713
0.634138 0.374176 0.130896
0.650092 0.368970 0.129729
0.663805 0.362749 0.128211
0.675476 0.355503 0.126344
0.685311 0.347221 0.124131
0.693509 0.337891 0.121575
0.700260 0.327493 0.118680
0.705735 0.315993 0.115442
0.710088 0.303341 0.111859
0.713457 0.289464 0.107921
0.716853 0.281443 0.105712
0.239550 0.411338 0.135063
0.239663 0.411532 0.135127
0.239943 0.412013 0.135285
0.240365 0.412737 0.135523
0.240916 0.413684 0.135833
0.241589 0.414839 0.136213
0.242377 0.416193 0.136657
0.243276 0.417735 0.137164
0.264266 0.418346 0.137613
0.295791 0.418410 0.138043
0.327438 0.418476 0.138511
0.359180 0.418543 0.139016
0.390996 0.418610 0.139555
0.422872 0.418676 0.140129
0.454798 0.418742 0.140735
0.486742 0.418803 0.141372
0.518046 0.418712 0.141979
0.547623 0.418200 0.142446
0.574828 0.417059 0.142691
0.599356 0.415145 0.142657
0.621123 0.412364 0.142310
0.640188 0.408658 0.141630
0.656696 0.404000 0.140610
0.670844 0.398378 0.139250
0.682851 0.391792 0.137554
0.692942 0.384246 0.135530
0.701333 0.375743 0.133184
0.708228 0.366280 0.130522
0.713810 0.355847 0.127548
0.718243 0.344421 0.124263
0.721671 0.331966 0.120664
0.724220 0.318428 0.116744
0.257977 0.442980 0.145453
0.258084 0.443163 0.145513
0.258347 0.443616 0.145662
0.258745 0.444298 0.145886
0.259265 0.445191 0.146179
0.259899 0.446280 0.146537
0.260643 0.447557 0.146956
0.261491 0.449013 0.147434
0.265285 0.450487 0.147952
0.296702 0.450551 0.148359
0.328269 0.450616 0.148802
0.359943 0.450682 0.149279
0.391699 0.450749 0.149790
0.423522 0.450816 0.150333
0.455401 0.450882 0.150908
0.487325 0.450948 0.151513
0.519115 0.450977 0.152134
0.549678 0.450727 0.152670
0.578027 0.449938 0.153016
0.603663 0.448430 0.153103
0.626407 0.446092 0.152885
0.646290 0.442859 0.152342
0.663457 0.438702 0.151463
0.678122 0.433616 0.150251
0.690528 0.427609 0.148713
0.700922 0.420695 0.146857
0.709540 0.412887 0.144694
0.716603 0.404197 0.142234
0.722309 0.394629 0.139483
0.726833 0.384178 0.136447
0.730328 0.372831 0.133127
0.732927 0.360559 0.129521
0.276404 0.474621 0.155842
0.276505 0.474794 0.155899
0.276755 0.475223 0.156040
0.277131 0.475869 0.156252
0.277623 0.476714 0.156530
0.278224 0.477746 0.156868
0.278928 0.478955 0.157265
0.279731 0.480334 0.157718
0.280630 0.481877 0.158225
0.297669 0.482692 0.158690
0.329154 0.482756 0.159110
0.360757 0.482821 0.159563
0.392451 0.482888 0.160049
0.424220 0.482955 0.160565
0.456049 0.483022 0.161111
0.487929 0.483088 0.161687
0.519845 0.483153 0.162291
0.551217 0.483096 0.162873
0.580745 0.482624 0.163314
0.607620 0.481504 0.163519
0.631502 0.479592 0.163433
0.652350 0.476810 0.163025
0.670302 0.473125 0.162286
0.685584 0.468532 0.161216
0.698463 0.463046 0.159825
0.709215 0.456688 0.158123
0.718100 0.449482 0.156125
0.725360 0.441449 0.153842
0.731211 0.432605 0.151285
0.735840 0.422957 0.148461
0.739412 0.412506 0.145376
0.742066 0.401242 0.142031
0.294831 0.506263 0.166232
0.294927 0.506427 0.166286
0.295164 0.506834 0.166419
0.295521 0.507448 0.166621
0.295989 0.508251 0.166885
0.296560 0.509231 0.167206
0.297229 0.510380 0.167584
0.297992 0.511691 0.168014
0.298847 0.513158 0.168496
0.299789 0.514776 0.169027
0.330091 0.514897 0.169433
0.361620 0.514961 0.169865
0.393251 0.515027 0.170327
0.424963 0.515094 0.170819
0.456742 0.515161 0.171340
0.488577 0.515227 0.171889
0.520458 0.515294 0.172466
0.552268 0.515338 0.173060
0.582891 0.515129 0.173578
0.611099 0.514373 0.173898
0.636278 0.512876 0.173944
0.658262 0.510533 0.173675
0.677145 0.507300 0.173075
0.693163 0.503171 0.172145
0.706607 0.498165 0.170894
0.717783 0.492310 0.169337
0.726983 0.485638 0.167489
0.734474 0.478177 0.165366
0.740493 0.469954 0.162979
0.745243 0.460985 0.160341
0.748903 0.451281 0.157458
0.751621 0.440844 0.154335
0.313258 0.537904 0.176621
0.313349 0.538061 0.176673
0.313575 0.538449 0.176800
0.313916 0.539033 0.176992
0.314361 0.539798 0.177243
0.314905 0.540732 0.177550
0.315543 0.541828 0.177910
0.316271 0.543078 0.178320
0.317086 0.544477 0.178779
0.317984 0.546020 0.179286
0.331081 0.547039 0.179769
0.362531 0.547102 0.180181
0.394096 0.547167 0.180623
0.425750 0.547233 0.181093
0.457477 0.547300 0.181591
0.489265 0.547366 0.182116
0.521104 0.547433 0.182668
0.552985 0.547500 0.183245
0.584434 0.547473 0.183810
0.613979 0.547043 0.184234
0.640600 0.545948 0.184412
0.663901 0.544038 0.184285
0.683888 0.541248 0.183827
0.700783 0.537566 0.183036
0.714901 0.533012 0.181923
0.726583 0.527621 0.180503
0.736157 0.521432 0.178796
0.743920 0.514481 0.176819
0.750134 0.506802 0.174586
0.755025 0.498420 0.172111
0.758785 0.489354 0.169405
0.761573 0.479614 0.166475
0.331685 0.569546 0.187011
0.331772 0.569695 0.187060
0.331988 0.570066 0.187182
0.332313 0.570624 0.187365
0.332739 0.571355 0.187605
0.333259 0.572248 0.187898
0.333868 0.573295 0.188242
0.334564 0.574490 0.188634
0.335343 0.575827 0.189073
0.336202 0.577303 0.189558
0.337140 0.578912 0.190086
0.363488 0.579243 0.190509
0.394985 0.579307 0.190932
0.426579 0.579373 0.191383
0.458253 0.579439 0.191860
0.489993 0.579505 0.192363
0.521788 0.579572 0.192892
0.553631 0.579639 0.193446
0.585449 0.579693 0.194019
0.616176 0.579526 0.194525
0.644324 0.578810 0.194830
0.669127 0.577329 0.194847
0.690414 0.574980 0.194536
0.708356 0.571737 0.193887
0.723281 0.567618 0.192911
0.735567 0.562663 0.191626
0.745585 0.556920 0.190052
0.753669 0.550432 0.188210
0.760113 0.543240 0.186118
0.765167 0.535375 0.183792
0.769041 0.526864 0.181243
0.771911 0.517725 0.178482
0.350105 0.601175 0.197396
0.350188 0.601318 0.197443
0.350395 0.601674 0.197560
0.350707 0.602210 0.197736
0.351116 0.602911 0.197966
0.351614 0.603767 0.198247
0.352199 0.604771 0.198577
0.352867 0.605917 0.198953
0.353614 0.607200 0.199375
0.354438 0.608615 0.199839
0.355337 0.610159 0.200346
0.364500 0.611383 0.200848
0.395918 0.611448 0.201254
0.427450 0.611513 0.201687
0.459069 0.611578 0.202145
0.490759 0.611645 0.202628
0.522510 0.611711 0.203137
0.554312 0.611778 0.203669
0.586159 0.611845 0.204224
0.617689 0.611845 0.204776
0.647326 0.611464 0.205193
0.673785 0.610399 0.205354
0.696582 0.608486 0.205192
0.715768 0.605673 0.204688
0.731659 0.601974 0.203849
0.744669 0.597433 0.202695
0.755215 0.592106 0.201249
0.763681 0.586046 0.199536
0.770397 0.579300 0.197576
0.775643 0.571906 0.195387
0.779652 0.563894 0.192983
0.782615 0.555288 0.190375
0.368443 0.632664 0.207736
0.368524 0.632802 0.207781
0.368724 0.633146 0.207894
0.369025 0.633664 0.208064
0.369420 0.634341 0.208286
0.369901 0.635168 0.208558
0.370467 0.636139 0.208877
0.371112 0.637247 0.209240
0.371834 0.638487 0.209648
0.372631 0.639855 0.210097
0.373500 0.641348 0.210587
0.374440 0.642961 0.211117
0.396860 0.643532 0.211568
0.428346 0.643624 0.211993
0.459918 0.643707 0.212440
0.491562 0.643781 0.212908
0.523268 0.643850 0.213398
0.555029 0.643917 0.213910
0.586837 0.643984 0.214446
0.618653 0.644045 0.215000
0.649528 0.643913 0.215499
0.677709 0.643220 0.215790
0.702220 0.641722 0.215775
0.722871 0.639324 0.215416
0.739918 0.636027 0.214712
0.753796 0.631877 0.213686
0.764976 0.626938 0.212364
0.773895 0.621273 0.210773
0.780932 0.614937 0.208937
0.786404 0.607974 0.206877
0.790571 0.600421 0.204608
0.793645 0.592304 0.202142
0.386582 0.663811 0.217963
0.386660 0.663945 0.218007
0.386855 0.664280 0.218117
0.387148 0.664783 0.218282
0.387532 0.665443 0.218499
0.388002 0.666249 0.218763
0.388552 0.667194 0.219074
0.389181 0.668273 0.219428
0.389885 0.669482 0.219825
0.390662 0.670817 0.220263
0.391511 0.672274 0.220742
0.392428 0.673850 0.221259
0.397692 0.675324 0.221795
0.429155 0.675507 0.222235
0.460719 0.675670 0.222692
0.492349 0.675811 0.223166
0.524034 0.675930 0.223655
0.555768 0.676031 0.224160
0.587545 0.676115 0.224682
0.619362 0.676189 0.225222
0.650962 0.676172 0.225750
0.680753 0.675764 0.226143
0.707134 0.674637 0.226263
0.729491 0.672628 0.226044
0.747916 0.669711 0.225474
0.762838 0.665928 0.224572
0.774778 0.661348 0.223368
0.784238 0.656044 0.221891
0.791655 0.650081 0.220171
0.797391 0.643512 0.218230
0.801743 0.636377 0.216086
0.804946 0.628707 0.213754
0.404400 0.694406 0.228009
0.404476 0.694538 0.228052
0.404667 0.694865 0.228160
0.404955 0.695359 0.228322
0.405331 0.696005 0.228534
0.405791 0.696796 0.228794
0.406331 0.697723 0.229098
0.406949 0.698783 0.229446
0.407641 0.699972 0.229836
0.408406 0.701285 0.230268
0.409241 0.702720 0.230739
0.410146 0.704274 0.231249
0.411119 0.705945 0.231798
0.429709 0.706880 0.232319
0.461316 0.707191 0.232811
0.492982 0.707474 0.233315
0.524695 0.707723 0.233831
0.556445 0.707936 0.234357
0.588228 0.708113 0.234891
0.620039 0.708256 0.235436
0.651873 0.708368 0.235991
0.682860 0.708055 0.236416
0.711139 0.707207 0.236642
0.735427 0.705537 0.236551
0.755486 0.702963 0.236109
0.771664 0.699512 0.235325
0.784520 0.695255 0.234230
0.794627 0.690275 0.232860
0.802493 0.684646 0.231245
0.808538 0.678429 0.229413
0.813102 0.671673 0.227385
0.816453 0.664411 0.225176
0.421775 0.724242 0.237805
0.421851 0.724372 0.237848
0.422038 0.724694 0.237954
0.422322 0.725181 0.238114
0.422693 0.725818 0.238323
0.423147 0.726598 0.238579
0.423681 0.727514 0.238880
0.424291 0.728563 0.239224
0.424976 0.729739 0.239611
0.425735 0.731041 0.240038
0.426564 0.732466 0.240506
0.427465 0.734012 0.241013
0.428435 0.735677 0.241560
0.429829 0.737447 0.242146
0.461519 0.737974 0.242695
0.493287 0.738472 0.243257
0.525087 0.738931 0.243827
0.556912 0.739347 0.244404
0.588756 0.739712 0.244984
0.620615 0.740025 0.245567
0.652485 0.740281 0.246152
0.684326 0.740477 0.246736
0.714111 0.739496 0.246930
0.740475 0.738047 0.246932
0.762437 0.735744 0.246597
0.780123 0.732570 0.245919
0.794086 0.728587 0.244923
0.804970 0.723882 0.243646
0.813369 0.718540 0.242125
0.819776 0.712631 0.240390
0.824584 0.706208 0.238465
0.828101 0.699311 0.236367
0.438592 0.753118 0.247287
0.438667 0.753247 0.247329
0.438853 0.753566 0.247434
0.439133 0.754048 0.247592
0.439501 0.754680 0.247800
0.439952 0.755454 0.248054
0.440482 0.756364 0.248353
0.441089 0.757406 0.248695
0.441771 0.758578 0.249080
0.442527 0.759876 0.249506
0.443357 0.761300 0.249974
0.444258 0.762849 0.250482
0.445233 0.764522 0.251031
0.446279 0.766319 0.251622
0.461129 0.767722 0.252248
0.493063 0.768499 0.252889
0.525022 0.769243 0.253540
0.556991 0.769945 0.254196
0.588963 0.770593 0.254855
0.620934 0.771179 0.255512
0.652901 0.771696 0.256166
0.684844 0.772133 0.256812
0.716667 0.772472 0.257443
0.744480 0.770294 0.257225
0.768572 0.768095 0.256949
0.788048 0.765090 0.256346
0.803347 0.761298 0.255426
0.815170 0.756799 0.254225
0.824204 0.751681 0.252780
0.831033 0.746021 0.251125
0.836119 0.739879 0.249288
0.839821 0.733298 0.247288
0.454744 0.780854 0.256394
0.454818 0.780982 0.256436
0.455003 0.781299 0.256540
0.455282 0.781778 0.256698
0.455648 0.782407 0.256904
0.456097 0.783177 0.257157
0.456626 0.784085 0.257455
0.457232 0.785126 0.257797
0.457914 0.786297 0.258181
0.458672 0.787599 0.258609
0.459505 0.789029 0.259078
0.460413 0.790588 0.259590
0.461396 0.792276 0.260145
0.462456 0.794096 0.260742
0.463594 0.796050 0.261384
0.492100 0.797266 0.262115
0.524294 0.798355 0.262867
0.556482 0.799412 0.263628
0.588656 0.800424 0.264393
0.620812 0.801379 0.265157
0.652948 0.802263 0.265916
0.685059 0.803063 0.266666
0.717045 0.803754 0.267397
0.748846 0.804313 0.268099
0.773741 0.800252 0.267234
0.795275 0.797173 0.266633
0.812176 0.793415 0.265745
0.825130 0.789006 0.264586
0.834923 0.784018 0.263190
0.842245 0.778527 0.261593
0.847648 0.772597 0.259823
0.851551 0.766270 0.257903
0.470141 0.807292 0.265075
0.470215 0.807419 0.265117
0.470399 0.807736 0.265221
0.470677 0.808213 0.265378
0.471042 0.808840 0.265583
0.471491 0.809610 0.265836
0.472019 0.810517 0.266134
0.472626 0.811559 0.266476
0.473310 0.812734 0.266862
0.474072 0.814042 0.267291
0.474910 0.815482 0.267764
0.475827 0.817056 0.268281
0.476823 0.818765 0.268842
0.477899 0.820614 0.269449
0.479059 0.822605 0.270103
0.490204 0.824518 0.270849
0.522699 0.825993 0.271718
0.555182 0.827458 0.272602
0.587633 0.828896 0.273494
0.620051 0.830293 0.274391
0.652431 0.831631 0.275287
0.684773 0.832897 0.276175
0.717025 0.834064 0.277047
0.749016 0.835088 0.277887
0.780804 0.835949 0.278686
0.801698 0.829182 0.276894
0.820465 0.825118 0.275933
0.834772 0.820580 0.274750
0.845468 0.815566 0.273357
0.853365 0.810124 0.271780
0.859123 0.804306 0.270049
0.863243 0.798152 0.268182
0.484709 0.832307 0.273289
0.484783 0.832434 0.273330
0.484966 0.832749 0.273434
0.485244 0.833226 0.273591
0.485609 0.833853 0.273796
0.486057 0.834622 0.274049
0.486586 0.835530 0.274347
0.487194 0.836575 0.274690
0.487882 0.837755 0.275078
0.488648 0.839071 0.275510
0.489493 0.840523 0.275986
0.490420 0.842113 0.276509
0.491428 0.843845 0.277077
0.492522 0.845724 0.277694
0.493704 0.847754 0.278361
0.494979 0.849942 0.279079
