ProPhoto to sRGB brightness only.cube
# input/output colorspace: ProPhoto, gamma 1.8
# github.com/abpy/gamut-fix, Aaron Buchler
# Gamut compression/mapping
# Saturation (no compression)
# Brightness Input gamut: ProPhoto
# Output gamut: sRGB
LUT_3D_SIZE 32
0.000000 0.000000 0.000000
0.032235 0.000000 0.000000
0.064482 0.000000 0.000000
0.096698 0.000000 0.000000
0.128858 0.000000 0.000000
0.160917 0.000000 0.000000
0.192813 0.000000 0.000000
0.224464 0.000000 0.000000
0.255766 0.000000 0.000000
0.286597 0.000000 0.000000
0.316815 0.000000 0.000000
0.346267 0.000000 0.000000
0.374791 0.000000 0.000000
0.402224 0.000000 0.000000
0.428409 0.000000 0.000000
0.453206 0.000000 0.000000
0.476495 0.000000 0.000000
0.498183 0.000000 0.000000
0.518209 0.000000 0.000000
0.536542 0.000000 0.000000
0.553183 0.000000 0.000000
0.568162 0.000000 0.000000
0.581531 0.000000 0.000000
0.593363 0.000000 0.000000
0.603742 0.000000 0.000000
0.612763 0.000000 0.000000
0.620523 0.000000 0.000000
0.627123 0.000000 0.000000
0.632658 0.000000 0.000000
0.637223 0.000000 0.000000
0.640904 0.000000 0.000000
0.643782 0.000000 0.000000
0.000000 0.032258 0.000000
0.032258 0.032258 0.000000
0.064516 0.032258 0.000000
0.096774 0.032258 0.000000
0.129004 0.032242 0.000000
0.161115 0.032140 0.000000
0.193052 0.031870 0.000000
0.224739 0.031308 0.000000
0.256076 0.030264 0.000000
0.286940 0.028448 0.000000
0.317191 0.025387 0.000000
0.346675 0.020155 0.000000
0.375229 0.009590 0.000000
0.402691 0.000000 0.000000
0.428903 0.000000 0.000000
0.453724 0.000000 0.000000
0.477035 0.000000 0.000000
0.498742 0.000000 0.000000
0.518783 0.000000 0.000000
0.537130 0.000000 0.000000
0.553782 0.000000 0.000000
0.568769 0.000000 0.000000
0.582145 0.000000 0.000000
0.593982 0.000000 0.000000
0.604364 0.000000 0.000000
0.613388 0.000000 0.000000
0.621150 0.000000 0.000000
0.627750 0.000000 0.000000
0.633287 0.000000 0.000000
0.637852 0.000000 0.000000
0.641533 0.000000 0.000000
0.644411 0.000000 0.000000
0.000000 0.064516 0.000000
0.032258 0.064516 0.000000
0.064516 0.064516 0.000000
0.096774 0.064516 0.000000
0.129032 0.064516 0.000000
0.161287 0.064515 0.000000
0.193416 0.064457 0.000000
0.225263 0.064241 0.000000
0.256732 0.063763 0.000000
0.287710 0.062888 0.000000
0.318063 0.061432 0.000000
0.347641 0.059148 0.000000
0.376282 0.055696 0.000000
0.403822 0.050582 0.000000
0.430107 0.042972 0.000000
0.454993 0.031011 0.000000
0.478361 0.000000 0.000000
0.500117 0.000000 0.000000
0.520200 0.000000 0.000000
0.538581 0.000000 0.000000
0.555262 0.000000 0.000000
0.570271 0.000000 0.000000
0.583665 0.000000 0.000000
0.595514 0.000000 0.000000
0.605906 0.000000 0.000000
0.614936 0.000000 0.000000
0.622702 0.000000 0.000000
0.629306 0.000000 0.000000
0.634844 0.000000 0.000000
0.639410 0.000000 0.000000
0.643091 0.000000 0.000000
0.645970 0.000000 0.000000
0.000000 0.096774 0.000000
0.032258 0.096774 0.000000
0.064516 0.096774 0.000000
0.096774 0.096774 0.000000
0.129032 0.096774 0.000000
0.161290 0.096774 0.000000
0.193548 0.096774 0.000000
0.225687 0.096731 0.000000
0.257438 0.096519 0.000000
0.288657 0.096028 0.000000
0.319216 0.095132 0.000000
0.348973 0.093672 0.000000
0.377772 0.091454 0.000000
0.405453 0.088233 0.000000
0.431863 0.083695 0.000000
0.456859 0.077420 0.000000
0.480322 0.068783 0.000000
0.502160 0.056672 0.000000
0.522312 0.038328 0.000000
0.540750 0.000000 0.000000
0.557477 0.000000 0.000000
0.572523 0.000000 0.000000
0.585944 0.000000 0.000000
0.597814 0.000000 0.000000
0.608222 0.000000 0.000000
0.617262 0.000000 0.000000
0.625036 0.000000 0.000000
0.631644 0.000000 0.000000
0.637185 0.000000 0.000000
0.641753 0.000000 0.000000
0.645435 0.000000 0.000000
0.648315 0.000000 0.000000
0.000000 0.129032 0.000000
0.032258 0.129032 0.000000
0.064516 0.129032 0.000000
0.096774 0.129032 0.000000
0.129032 0.129032 0.000000
0.161290 0.129032 0.000000
0.193548 0.129032 0.000000
0.225806 0.129032 0.000000
0.257924 0.128987 0.000000
0.289533 0.128752 0.000000
0.320438 0.128203 0.000000
0.350492 0.127216 0.000000
0.379547 0.125644 0.000000
0.407451 0.123316 0.000000
0.434053 0.120028 0.000000
0.459216 0.115543 0.000000
0.482822 0.109568 0.000000
0.504781 0.101724 0.000000
0.525034 0.091468 0.000000
0.543555 0.077902 0.000000
0.560347 0.059133 0.000000
0.575446 0.028136 0.000000
0.588908 0.000000 0.000000
0.600808 0.000000 0.000000
0.611238 0.000000 0.000000
0.620294 0.000000 0.000000
0.628079 0.000000 0.000000
0.634694 0.000000 0.000000
0.640240 0.000000 0.000000
0.644810 0.000000 0.000000
0.648495 0.000000 0.000000
0.651375 0.000000 0.000000
0.000000 0.161290 0.000000
0.032258 0.161290 0.000000
0.064516 0.161290 0.000000
0.096774 0.161290 0.000000
0.129032 0.161290 0.000000
0.161290 0.161290 0.000000
0.193548 0.161290 0.000000
0.225806 0.161290 0.000000
0.258064 0.161290 0.000000
0.290119 0.161230 0.000000
0.321512 0.160945 0.000000
0.352008 0.160302 0.000000
0.381446 0.159176 0.000000
0.409678 0.157427 0.000000
0.436561 0.154899 0.000000
0.461963 0.151421 0.000000
0.485771 0.146798 0.000000
0.507900 0.140807 0.000000
0.528293 0.133182 0.000000
0.546928 0.123579 0.000000
0.563812 0.111508 0.000000
0.578982 0.096174 0.000000
0.592499 0.075995 0.000000
0.604442 0.046337 0.000000
0.614902 0.000000 0.000000
0.623981 0.000000 0.000000
0.631781 0.000000 0.000000
0.638406 0.000000 0.000000
0.643958 0.000000 0.000000
0.648533 0.000000 0.000000
0.652220 0.000000 0.000000
0.655102 0.000000 0.000000
0.000000 0.193548 0.000000
0.032258 0.193548 0.000000
0.064516 0.193548 0.000000
0.096774 0.193548 0.000000
0.129032 0.193548 0.000000
0.161290 0.193548 0.000000
0.193548 0.193548 0.000000
0.225806 0.193548 0.000000
0.258065 0.193548 0.000000
0.290318 0.193547 0.000000
0.322248 0.193455 0.000000
0.353326 0.193092 0.000000
0.383294 0.192320 0.000000
0.411985 0.191011 0.000000
0.439260 0.189034 0.000000
0.464993 0.186250 0.000000
0.489079 0.182510 0.000000
0.511438 0.177654 0.000000
0.532020 0.171508 0.000000
0.550808 0.163875 0.000000
0.567814 0.154516 0.000000
0.583080 0.143118 0.000000
0.596671 0.129231 0.000000
0.608669 0.112117 0.000000
0.619170 0.090354 0.000000
0.628278 0.060180 0.000000
0.636099 0.000000 0.000000
0.642739 0.000000 0.000000
0.648301 0.000000 0.000000
0.652881 0.000000 0.000000
0.656572 0.000000 0.000000
0.659458 0.000000 0.000000
0.000000 0.225806 0.000000
0.032258 0.225806 0.000000
0.064516 0.225806 0.000000
0.096774 0.225806 0.000000
0.129032 0.225806 0.000000
0.161290 0.225806 0.000000
0.193548 0.225806 0.000000
0.225806 0.225806 0.000000
0.258065 0.225806 0.000000
0.290323 0.225806 0.000000
0.322555 0.225800 0.000000
0.354273 0.225656 0.000000
0.384913 0.225182 0.000000
0.414213 0.224242 0.000000
0.442013 0.222710 0.000000
0.468191 0.220464 0.000000
0.492647 0.217380 0.000000
0.515312 0.213333 0.000000
0.536145 0.208192 0.000000
0.555134 0.201821 0.000000
0.572300 0.194073 0.000000
0.587691 0.184777 0.000000
0.601378 0.173719 0.000000
0.613449 0.160611 0.000000
0.624004 0.145027 0.000000
0.633151 0.126270 0.000000
0.640999 0.103013 0.000000
0.647658 0.071973 0.000000
0.653232 0.010741 0.000000
0.657822 0.000000 0.000000
0.661518 0.000000 0.000000
0.664408 0.000000 0.000000
0.000000 0.258065 0.000000
0.032258 0.258065 0.000000
0.064516 0.258065 0.000000
0.096774 0.258065 0.000000
0.129032 0.258065 0.000000
0.161290 0.258065 0.000000
0.193548 0.258065 0.000000
0.225806 0.258065 0.000000
0.258065 0.258065 0.000000
0.290323 0.258065 0.000000
0.322581 0.258065 0.000000
0.354750 0.258043 0.000000
0.386136 0.257818 0.000000
0.416193 0.257200 0.000000
0.444671 0.256052 0.000000
0.471429 0.254258 0.000000
0.496371 0.251707 0.000000
0.519436 0.248292 0.000000
0.540593 0.243908 0.000000
0.559842 0.238453 0.000000
0.577215 0.231824 0.000000
0.592767 0.223910 0.000000
0.606577 0.214588 0.000000
0.618741 0.203709 0.000000
0.629366 0.191077 0.000000
0.638563 0.176421 0.000000
0.646447 0.159332 0.000000
0.653132 0.139140 0.000000
0.658723 0.114592 0.000000
0.663324 0.082741 0.000000
0.667029 0.029800 0.000000
0.669924 0.000000 0.000000
0.000000 0.290323 0.000000
0.032258 0.290323 0.000000
0.064516 0.290323 0.000000
0.096774 0.290323 0.000000
0.129032 0.290323 0.000000
0.161290 0.290323 0.000000
0.193548 0.290323 0.000000
0.225806 0.290323 0.000000
0.258065 0.290323 0.000000
0.290323 0.290323 0.000000
0.322581 0.290323 0.000000
0.354839 0.290323 0.000000
0.386854 0.290266 0.000000
0.417764 0.289926 0.000000
0.447075 0.289125 0.000000
0.474568 0.287732 0.000000
0.500132 0.285640 0.000000
0.523710 0.282754 0.000000
0.545283 0.278983 0.000000
0.564866 0.274247 0.000000
0.582502 0.268467 0.000000
0.598258 0.261566 0.000000
0.612226 0.253465 0.000000
0.624509 0.244076 0.000000
0.635221 0.233293 0.000000
0.644483 0.220979 0.000000
0.652414 0.206953 0.000000
0.659130 0.190950 0.000000
0.664745 0.172575 0.000000
0.669361 0.151181 0.000000
0.673076 0.125585 0.000000
0.675979 0.093120 0.000000
0.000000 0.322581 0.000000
0.032258 0.322581 0.000000
0.064516 0.322581 0.000000
0.096774 0.322581 0.000000
0.129032 0.322581 0.000000
0.161290 0.322581 0.000000
0.193548 0.322581 0.000000
0.225806 0.322581 0.000000
0.258065 0.322581 0.000000
0.290323 0.322581 0.000000
0.322581 0.322581 0.000000
0.354839 0.322581 0.000000
0.387088 0.322579 0.000000
0.418803 0.322454 0.000000
0.449067 0.321962 0.000000
0.477457 0.320937 0.000000
0.503799 0.319262 0.000000
0.528025 0.316841 0.000000
0.550127 0.313596 0.000000
0.570132 0.309456 0.000000
0.588100 0.304362 0.000000
0.604115 0.298256 0.000000
0.618280 0.291086 0.000000
0.630712 0.282795 0.000000
0.641536 0.273322 0.000000
0.650879 0.262592 0.000000
0.658869 0.250509 0.000000
0.665627 0.236944 0.000000
0.671270 0.221720 0.000000
0.675907 0.204580 0.000000
0.679636 0.185139 0.000000
0.682548 0.162775 0.000000
0.000000 0.354839 0.000000
0.032258 0.354839 0.000000
0.064516 0.354839 0.000000
0.096774 0.354839 0.000000
0.129032 0.354839 0.000000
0.161290 0.354839 0.000000
0.193548 0.354839 0.000000
0.225806 0.354839 0.000000
0.258065 0.354839 0.000000
0.290323 0.354839 0.000000
0.322581 0.354839 0.000000
0.354839 0.354839 0.000000
0.387097 0.354839 0.000000
0.419280 0.354823 0.000000
0.450509 0.354590 0.000000
0.479939 0.353904 0.000000
0.507228 0.352616 0.000000
0.532261 0.350623 0.000000
0.555024 0.347848 0.000000
0.575559 0.344229 0.000000
0.593944 0.339715 0.000000
0.610282 0.334266 0.000000
0.624695 0.327844 0.000000
0.637313 0.320415 0.000000
0.648276 0.311942 0.000000
0.657721 0.302384 0.000000
0.665784 0.291686 0.000000
0.672595 0.279782 0.000000
0.678275 0.266579 0.000000
0.682937 0.251951 0.000000
0.686684 0.235724 0.000000
0.689609 0.217645 0.000000
0.000000 0.387097 0.000000
0.032258 0.387097 0.000000
0.064516 0.387097 0.000000
0.096774 0.387097 0.000000
0.129032 0.387097 0.000000
0.161290 0.387097 0.000000
0.193548 0.387097 0.000000
0.225806 0.387097 0.000000
0.258065 0.387097 0.000000
0.290323 0.387097 0.000000
0.322581 0.387097 0.000000
0.354839 0.387097 0.000000
0.387097 0.387097 0.000000
0.419355 0.387097 0.000000
0.451331 0.387038 0.000000
0.481868 0.386652 0.000000
0.510268 0.385730 0.000000
0.536281 0.384141 0.000000
0.559861 0.381802 0.000000
0.581055 0.378653 0.000000
0.599960 0.374652 0.000000
0.616701 0.369767 0.000000
0.631420 0.363974 0.000000
0.644271 0.357252 0.000000
0.655405 0.349582 0.000000
0.664977 0.340942 0.000000
0.673131 0.331305 0.000000
0.680007 0.320633 0.000000
0.685734 0.308877 0.000000
0.690428 0.295971 0.000000
0.694198 0.281823 0.000000
0.697138 0.266308 0.000000
0.000000 0.419355 0.000000
0.032258 0.419355 0.000000
0.064516 0.419355 0.000000
0.096774 0.419355 0.000000
0.129032 0.419355 0.000000
0.161290 0.419355 0.000000
0.193548 0.419355 0.000000
0.225806 0.419355 0.000000
0.258065 0.419355 0.000000
0.290323 0.419355 0.000000
0.322581 0.419355 0.000000
0.354839 0.419355 0.000000
0.387097 0.419355 0.000000
0.419355 0.419355 0.000000
0.451601 0.419352 0.000000
0.483141 0.419203 0.000000
0.512764 0.418618 0.000000
0.539937 0.417417 0.000000
0.564512 0.415494 0.000000
0.586517 0.412786 0.000000
0.606065 0.409252 0.000000
0.623304 0.404869 0.000000
0.638405 0.399622 0.000000
0.651541 0.393502 0.000000
0.662888 0.386502 0.000000
0.672616 0.378613 0.000000
0.680883 0.369825 0.000000
0.687840 0.360120 0.000000
0.693624 0.349473 0.000000
0.698358 0.337848 0.000000
0.702156 0.325196 0.000000
0.705116 0.311449 0.000000
0.000000 0.451613 0.000000
0.032258 0.451613 0.000000
0.064516 0.451613 0.000000
0.096774 0.451613 0.000000
0.129032 0.451613 0.000000
0.161290 0.451613 0.000000
0.193548 0.451613 0.000000
0.225806 0.451613 0.000000
0.258065 0.451613 0.000000
0.290323 0.451613 0.000000
0.322581 0.451613 0.000000
0.354839 0.451613 0.000000
0.387097 0.451613 0.000000
0.419355 0.451613 0.000000
0.451613 0.451613 0.000000
0.483749 0.451589 0.000000
0.514587 0.451294 0.000000
0.543073 0.450463 0.000000
0.568833 0.448944 0.000000
0.591827 0.446659 0.000000
0.612165 0.443564 0.000000
0.630018 0.439639 0.000000
0.645587 0.434879 0.000000
0.659075 0.429285 0.000000
0.670684 0.422860 0.000000
0.680603 0.415607 0.000000
0.689010 0.407525 0.000000
0.696067 0.398611 0.000000
0.701921 0.388855 0.000000
0.706705 0.378238 0.000000
0.710538 0.366734 0.000000
0.713522 0.354307 0.000000
0.000000 0.483871 0.000000
0.032258 0.483871 0.000000
0.064516 0.483871 0.000000
0.096774 0.483871 0.000000
0.129032 0.483871 0.000000
0.161290 0.483871 0.000000
0.193548 0.483871 0.000000
0.225806 0.483871 0.000000
0.258065 0.483871 0.000000
0.290323 0.483871 0.000000
0.322581 0.483871 0.000000
0.354839 0.483871 0.000000
0.387097 0.483871 0.000000
0.419355 0.483871 0.000000
0.451613 0.483871 0.000000
0.483871 0.483871 0.000000
0.515672 0.483782 0.000000
0.545540 0.483287 0.000000
0.572669 0.482163 0.000000
0.596850 0.480291 0.000000
0.618149 0.477615 0.000000
0.636754 0.474116 0.000000
0.652896 0.469798 0.000000
0.666816 0.464672 0.000000
0.678744 0.458750 0.000000
0.688897 0.452045 0.000000
0.697475 0.444567 0.000000
0.704654 0.436321 0.000000
0.710597 0.427307 0.000000
0.715444 0.417518 0.000000
0.719320 0.406943 0.000000
0.722336 0.395559 0.000000
0.000000 0.516129 0.000000
0.032258 0.516129 0.000000
0.064516 0.516129 0.000000
0.096774 0.516129 0.000000
0.129032 0.516129 0.000000
0.161290 0.516129 0.000000
0.193548 0.516129 0.000000
0.225806 0.516129 0.000000
0.258065 0.516129 0.000000
0.290323 0.516129 0.000000
0.322581 0.516129 0.000000
0.354839 0.516129 0.000000
0.387097 0.516129 0.000000
0.419355 0.516129 0.000000
0.451613 0.516129 0.000000
0.483871 0.516129 0.000000
0.516088 0.516121 0.000000
0.547228 0.515903 0.000000
0.575861 0.515154 0.000000
0.601432 0.513685 0.000000
0.623889 0.511412 0.000000
0.643410 0.508316 0.000000
0.660253 0.504405 0.000000
0.674698 0.499701 0.000000
0.687015 0.494226 0.000000
0.697453 0.488002 0.000000
0.706237 0.481047 0.000000
0.713566 0.473374 0.000000
0.719616 0.464993 0.000000
0.724540 0.455904 0.000000
0.728472 0.446104 0.000000
0.731528 0.435583 0.000000
0.000000 0.548369 0.000000
0.032198 0.548371 0.000000
0.064490 0.548375 0.000000
0.096763 0.548379 0.000000
0.129028 0.548384 0.000000
0.161289 0.548386 0.000000
0.193548 0.548387 0.000000
0.225806 0.548387 0.000000
0.258065 0.548387 0.000000
0.290323 0.548387 0.000000
0.322581 0.548387 0.000000
0.354839 0.548387 0.000000
0.387097 0.548387 0.000000
0.419355 0.548387 0.000000
0.451613 0.548387 0.000000
0.483871 0.548387 0.000000
0.516129 0.548387 0.000000
0.548120 0.548338 0.000000
0.578264 0.547921 0.000000
0.605407 0.546837 0.000000
0.629238 0.544955 0.000000
0.649864 0.542241 0.000000
0.667560 0.538708 0.000000
0.682645 0.534387 0.000000
0.695435 0.529311 0.000000
0.706218 0.523511 0.000000
0.715251 0.517014 0.000000
0.722760 0.509840 0.000000
0.728940 0.502006 0.000000
0.733957 0.493518 0.000000
0.737957 0.484381 0.000000
0.741064 0.474592 0.000000
0.000000 0.580418 0.000000
0.031419 0.580427 0.000000
0.064087 0.580450 0.000000
0.096514 0.580481 0.000000
0.128870 0.580516 0.000000
0.161192 0.580552 0.000000
0.193493 0.580585 0.000000
0.225779 0.580611 0.000000
0.258054 0.580630 0.000000
0.290320 0.580641 0.000000
0.322580 0.580645 0.000000
0.354839 0.580645 0.000000
0.387097 0.580645 0.000000
0.419355 0.580645 0.000000
0.451613 0.580645 0.000000
0.483871 0.580645 0.000000
0.516129 0.580645 0.000000
0.548387 0.580645 0.000000
0.579793 0.580475 0.000000
0.608607 0.579741 0.000000
0.634025 0.578229 0.000000
0.655975 0.575878 0.000000
0.674704 0.572698 0.000000
0.690568 0.568727 0.000000
0.703930 0.564007 0.000000
0.715130 0.558582 0.000000
0.724464 0.552487 0.000000
0.732189 0.545749 0.000000
0.738523 0.538391 0.000000
0.743652 0.530426 0.000000
0.747733 0.521864 0.000000
0.750900 0.512706 0.000000
0.000000 0.612019 0.000000
0.028664 0.612041 0.000000
0.062644 0.612094 0.000000
0.095557 0.612171 0.000000
0.128189 0.612263 0.000000
0.160698 0.612365 0.000000
0.193138 0.612471 0.000000
0.225530 0.612574 0.000000
0.257887 0.612668 0.000000
0.290217 0.612749 0.000000
0.322524 0.612813 0.000000
0.354813 0.612859 0.000000
0.387088 0.612887 0.000000
0.419353 0.612900 0.000000
0.451613 0.612903 0.000000
0.483871 0.612903 0.000000
0.516129 0.612903 0.000000
0.548387 0.612903 0.000000
0.580643 0.612903 0.000000
0.610893 0.612393 0.000000
0.638069 0.611219 0.000000
0.661574 0.609207 0.000000
0.681548 0.606353 0.000000
0.698357 0.602698 0.000000
0.712416 0.598297 0.000000
0.724120 0.593201 0.000000
0.733815 0.587456 0.000000
0.741797 0.581099 0.000000
0.748315 0.574156 0.000000
0.753576 0.566648 0.000000
0.757754 0.558588 0.000000
0.760992 0.549982 0.000000
0.000000 0.642905 0.000000
0.021628 0.642943 0.000000
0.059289 0.643038 0.000000
0.093304 0.643175 0.000000
0.126529 0.643346 0.000000
0.159428 0.643542 0.000000
0.192153 0.643754 0.000000
0.224766 0.643974 0.000000
0.257302 0.644193 0.000000
0.289779 0.644402 0.000000
0.322207 0.644594 0.000000
0.354595 0.644762 0.000000
0.386949 0.644902 0.000000
0.419274 0.645010 0.000000
0.451575 0.645086 0.000000
0.483857 0.645132 0.000000
0.516126 0.645154 0.000000
0.548387 0.645161 0.000000
0.580645 0.645161 0.000000
0.612800 0.645135 0.000000
0.641193 0.643908 0.000000
0.666474 0.642198 0.000000
0.687931 0.639639 0.000000
0.705884 0.636267 0.000000
0.720790 0.632144 0.000000
0.733104 0.627334 0.000000
0.743234 0.621892 0.000000
0.751524 0.615864 0.000000
0.758260 0.609282 0.000000
0.763676 0.602173 0.000000
0.767966 0.594553 0.000000
0.771288 0.586431 0.000000
0.000000 0.672811 0.000000
0.000000 0.672869 0.000000
0.052748 0.673012 0.000000
0.089019 0.673222 0.000000
0.123346 0.673488 0.000000
0.156940 0.673799 0.000000
0.190160 0.674144 0.000000
0.223154 0.674514 0.000000
0.255997 0.674896 0.000000
0.288729 0.675280 0.000000
0.321374 0.675656 0.000000
0.353947 0.676012 0.000000
0.386459 0.676340 0.000000
0.418917 0.676630 0.000000
0.451329 0.676877 0.000000
0.483701 0.677075 0.000000
0.516037 0.677224 0.000000
0.548345 0.677325 0.000000
0.580630 0.677384 0.000000
0.612900 0.677411 0.000000
0.644598 0.677179 0.000000
0.670474 0.674827 0.000000
0.693665 0.672517 0.000000
0.712996 0.669388 0.000000
0.728929 0.665503 0.000000
0.741986 0.660934 0.000000
0.752641 0.655748 0.000000
0.761300 0.649998 0.000000
0.768293 0.643726 0.000000
0.773892 0.636961 0.000000
0.778311 0.629725 0.000000
0.781729 0.622031 0.000000
0.000000 0.701488 0.000000
0.000000 0.701568 0.000000
0.040601 0.701765 0.000000
0.081708 0.702056 0.000000
0.117982 0.702428 0.000000
0.152723 0.702869 0.000000
0.186734 0.703367 0.000000
0.220323 0.703910 0.000000
0.253639 0.704485 0.000000
0.286763 0.705080 0.000000
0.319740 0.705682 0.000000
0.352601 0.706278 0.000000
0.385365 0.706856 0.000000
0.418045 0.707402 0.000000
0.450651 0.707905 0.000000
0.483192 0.708354 0.000000
0.515673 0.708742 0.000000
0.548100 0.709060 0.000000
0.580481 0.709307 0.000000
0.612821 0.709484 0.000000
0.645114 0.709594 0.000000
0.675726 0.708778 0.000000
0.698539 0.704962 0.000000
0.719509 0.702018 0.000000
0.736690 0.698320 0.000000
0.750650 0.693943 0.000000
0.761943 0.688962 0.000000
0.771044 0.683440 0.000000
0.778345 0.677426 0.000000
0.784156 0.670956 0.000000
0.788726 0.664052 0.000000
0.792253 0.656730 0.000000
0.000000 0.728715 0.000000
0.000000 0.728818 0.000000
0.012172 0.729071 0.000000
0.069797 0.729449 0.000000
0.109589 0.729935 0.000000
0.146180 0.730515 0.000000
0.181399 0.731176 0.000000
0.215869 0.731907 0.000000
0.249872 0.732694 0.000000
0.283556 0.733523 0.000000
0.317007 0.734382 0.000000
0.350277 0.735254 0.000000
0.383400 0.736126 0.000000
0.416400 0.736983 0.000000
0.449294 0.737809 0.000000
0.482092 0.738590 0.000000
0.514804 0.739312 0.000000
0.547437 0.739961 0.000000
0.579997 0.740526 0.000000
0.612490 0.740997 0.000000
0.644921 0.741371 0.000000
0.677197 0.741628 0.000000
0.705875 0.739669 0.000000
0.725220 0.734133 0.000000
0.743904 0.730549 0.000000
0.758966 0.726303 0.000000
0.771033 0.721470 0.000000
0.780670 0.716122 0.000000
0.788336 0.710314 0.000000
0.794398 0.704084 0.000000
0.799142 0.697461 0.000000
0.802793 0.690463 0.000000
0.000000 0.754308 0.000000
0.000000 0.754434 0.000000
0.000000 0.754746 0.000000
0.049825 0.755211 0.000000
0.096934 0.755812 0.000000
0.136567 0.756535 0.000000
0.173612 0.757366 0.000000
0.209354 0.758292 0.000000
0.244321 0.759299 0.000000
0.278776 0.760376 0.000000
0.312869 0.761506 0.000000
0.346688 0.762676 0.000000
0.380294 0.763871 0.000000
0.413723 0.765073 0.000000
0.447003 0.766268 0.000000
0.480154 0.767437 0.000000
0.513188 0.768563 0.000000
0.546116 0.769628 0.000000
0.578945 0.770616 0.000000
0.611682 0.771511 0.000000
0.644332 0.772296 0.000000
0.676846 0.772951 0.000000
0.709049 0.773434 0.000000
0.734763 0.769601 0.000000
0.750382 0.762176 0.000000
0.766781 0.757971 0.000000
0.779795 0.753214 0.000000
0.790081 0.747976 0.000000
0.798186 0.742313 0.000000
0.804544 0.736270 0.000000
0.809489 0.729876 0.000000
0.813280 0.723149 0.000000
0.000000 0.778128 0.000000
0.000000 0.778277 0.000000
0.000000 0.778646 0.000000
0.000000 0.779198 0.000000
0.077767 0.779913 0.000000
0.122854 0.780777 0.000000
0.162715 0.781776 0.000000
0.200289 0.782897 0.000000
0.236587 0.784126 0.000000
0.272080 0.785451 0.000000
0.307019 0.786859 0.000000
0.341554 0.788334 0.000000
0.375780 0.789862 0.000000
0.409758 0.791427 0.000000
0.443533 0.793012 0.000000
0.477134 0.794601 0.000000
0.510583 0.796174 0.000000
0.543896 0.797712 0.000000
0.577083 0.799195 0.000000
0.610154 0.800603 0.000000
0.643114 0.801915 0.000000
0.675953 0.803107 0.000000
0.708477 0.804128 0.000000
0.740578 0.804935 0.000000
0.762149 0.798344 0.000000
0.773931 0.788950 0.000000
0.788099 0.784161 0.000000
0.799175 0.778947 0.000000
0.807809 0.773359 0.000000
0.814517 0.767439 0.000000
0.819696 0.761217 0.000000
0.823644 0.754710 0.000000
0.000000 0.800087 0.000000
0.000000 0.800258 0.000000
0.000000 0.800681 0.000000
0.000000 0.801316 0.000000
0.045529 0.802141 0.000000
0.103327 0.803141 0.000000
0.147823 0.804301 0.000000
0.188088 0.805610 0.000000
0.226233 0.807054 0.000000
0.263111 0.808622 0.000000
0.299153 0.810300 0.000000
0.334601 0.812075 0.000000
0.369606 0.813933 0.000000
0.404268 0.815861 0.000000
0.438653 0.817841 0.000000
0.472808 0.819858 0.000000
0.506766 0.821894 0.000000
0.540552 0.823930 0.000000
0.574183 0.825945 0.000000
0.607672 0.827919 0.000000
0.641028 0.829828 0.000000
0.674258 0.831649 0.000000
0.707238 0.833335 0.000000
0.739698 0.834813 0.000000
0.771678 0.836044 0.000000
0.787842 0.825704 0.000000
0.795811 0.814340 0.000000
0.807848 0.809022 0.000000
0.817121 0.803411 0.000000
0.824246 0.797536 0.000000
0.829695 0.791418 0.000000
0.833822 0.785071 0.000000
0.000000 0.820142 0.000000
0.000000 0.820334 0.000000
0.000000 0.820808 0.000000
0.000000 0.821520 0.000000
0.000000 0.822447 0.000000
0.074091 0.823574 0.000000
0.127544 0.824886 0.000000
0.171986 0.826372 0.000000
0.212745 0.828018 0.000000
0.251485 0.829815 0.000000
0.288956 0.831749 0.000000
0.325560 0.833810 0.000000
0.361535 0.835984 0.000000
0.397033 0.838260 0.000000
0.432155 0.840623 0.000000
0.466973 0.843058 0.000000
