ProPhoto to sRGB.cube
# input/output colorspace: ProPhoto, gamma 1.8
# github.com/abpy/gamut-fix, Aaron Buchler
# Gamut compression/mapping
# Saturation Input gamut: ProPhoto
# Brightness Input gamut: ACEScg
# Output gamut: sRGB
LUT_3D_SIZE 5
DOMAIN_MIN 0.000000 0.000000 0.000000
DOMAIN_MAX 0.903226 0.903226 0.903226
0.000000 0.000000 0.000000
0.211104 0.082881 0.031131
0.417043 0.163735 0.061500
0.580510 0.227913 0.085606
0.674612 0.264858 0.099483
0.128989 0.221490 0.072726
0.227700 0.225441 0.075454
0.449103 0.224843 0.080536
0.605177 0.237598 0.089244
0.685546 0.269151 0.101095
0.257977 0.442980 0.145453
0.261491 0.449013 0.147434
0.455401 0.450882 0.150908
0.646290 0.442859 0.152342
0.722309 0.394629 0.139483
0.386582 0.663811 0.217963
0.389181 0.668273 0.219428
0.460719 0.675670 0.222692
0.680753 0.675764 0.226143
0.791655 0.650081 0.220171
0.498394 0.855807 0.281005
0.500881 0.860078 0.282407
0.507465 0.871382 0.286119
0.681938 0.887936 0.293711
0.866021 0.877092 0.293206
0.065932 0.026992 0.180968
0.212785 0.084087 0.207324
0.419199 0.164890 0.213352
0.584621 0.229757 0.220492
0.679836 0.267105 0.223671
0.150373 0.221790 0.212199
0.225806 0.225806 0.225806
0.447706 0.231855 0.224907
0.607486 0.270303 0.222694
0.692919 0.297212 0.222660
0.266474 0.443595 0.218090
0.271141 0.449313 0.223514
0.451613 0.451613 0.225806
0.647547 0.443966 0.227575
0.726225 0.396100 0.225208
0.387699 0.664826 0.223761
0.392280 0.669053 0.243491
0.453104 0.676931 0.246032
0.677037 0.676824 0.250127
0.793585 0.651564 0.259231
0.498716 0.856360 0.281187
0.502622 0.860579 0.295584
0.510576 0.871861 0.299024
0.675964 0.888544 0.305271
0.866260 0.879311 0.307279
0.131863 0.053984 0.361935
0.216158 0.086790 0.416317
0.423909 0.167524 0.414462
0.594994 0.234422 0.417481
0.693844 0.273127 0.419018
0.198520 0.223522 0.410392
0.226307 0.225803 0.451388
0.449840 0.230932 0.449205
0.618477 0.273521 0.435858
0.707677 0.302469 0.428089
0.300746 0.443580 0.424399
0.306250 0.448178 0.439334
0.451613 0.451613 0.451613
0.656363 0.446242 0.450695
0.743628 0.417371 0.441939
0.414077 0.664681 0.430689
0.417373 0.668710 0.437168
0.451495 0.677189 0.451570
0.677140 0.677352 0.451598
0.806064 0.654982 0.446355
0.515890 0.857143 0.429088
0.518692 0.861293 0.432377
0.527365 0.872253 0.440855
0.670644 0.888948 0.448275
0.873575 0.884542 0.446962
0.197795 0.080976 0.542903
0.227364 0.093081 0.624063
0.428749 0.170612 0.621489
0.607652 0.240221 0.611033
0.712826 0.281298 0.610399
0.254261 0.228899 0.598497
0.271990 0.227594 0.649458
0.448754 0.237615 0.668682
0.631613 0.277017 0.642339
0.727821 0.309576 0.628506
0.345856 0.444528 0.625577
0.352817 0.447745 0.646774
0.451583 0.451607 0.677288
0.666381 0.448775 0.673347
0.765699 0.422439 0.660472
0.450849 0.664848 0.636524
0.454759 0.668304 0.647168
0.468721 0.676408 0.674368
0.677419 0.677419 0.677419
0.826739 0.659728 0.672861
0.548027 0.858141 0.638379
0.551189 0.862055 0.644562
0.560105 0.872342 0.660441
0.670508 0.888662 0.674962
0.888861 0.892184 0.675460
0.262324 0.107394 0.720021
0.283688 0.116140 0.778660
0.427343 0.171511 0.814433
0.636348 0.252521 0.812380
0.730071 0.288794 0.768818
0.310135 0.237301 0.772297
0.323993 0.233363 0.814925
0.439799 0.244235 0.856402
0.655147 0.289655 0.845696
0.745548 0.315460 0.790143
0.394144 0.446517 0.810793
0.401047 0.448164 0.832163
0.445500 0.450186 0.877439
0.672064 0.450142 0.879048
0.784370 0.425844 0.830992
0.493412 0.665789 0.832712
0.497643 0.668440 0.845265
0.510201 0.674550 0.876908
0.674856 0.676902 0.890644
0.845279 0.663924 0.863437
0.585411 0.859349 0.836097
0.588871 0.862962 0.844233
0.598205 0.872401 0.865322
0.668533 0.888006 0.892451
0.903226 0.903226 0.903226
