ProPhoto to sRGB saturation only.cube
# input/output colorspace: ProPhoto, gamma 1.8
# github.com/abpy/gamut-fix, Aaron Buchler
# Gamut compression/mapping
# Saturation Input gamut: ProPhoto
# Brightness (no compression)
# Output gamut: sRGB
LUT_3D_SIZE 32
0.000000 0.000000 0.000000
0.030158 0.011840 0.004447
0.060315 0.023680 0.008895
0.090473 0.035521 0.013342
0.120631 0.047361 0.017789
0.150789 0.059201 0.022236
0.180946 0.071041 0.026684
0.211104 0.082881 0.031131
0.241262 0.094721 0.035578
0.271419 0.106562 0.040025
0.301577 0.118402 0.044473
0.331735 0.130242 0.048920
0.361893 0.142082 0.053367
0.392050 0.153922 0.057815
0.422208 0.165763 0.062262
0.452366 0.177603 0.066709
0.482524 0.189443 0.071156
0.512681 0.201283 0.075604
0.542839 0.213123 0.080051
0.572997 0.224963 0.084498
0.603154 0.236804 0.088945
0.633312 0.248644 0.093393
0.663470 0.260484 0.097840
0.693628 0.272324 0.102287
0.723785 0.284164 0.106735
0.753943 0.296004 0.111182
0.784101 0.307845 0.115629
0.814258 0.319685 0.120076
0.844416 0.331525 0.124524
0.874574 0.343365 0.128971
0.904732 0.355205 0.133418
0.934889 0.367046 0.137865
0.018427 0.031641 0.010389
0.032529 0.032206 0.010779
0.064605 0.032265 0.011562
0.095249 0.037395 0.014046
0.124456 0.048862 0.018353
0.154001 0.060462 0.022710
0.183730 0.072134 0.027094
0.213568 0.083849 0.031494
0.243478 0.095592 0.035905
0.273438 0.107354 0.040323
0.303434 0.119131 0.044746
0.333456 0.130918 0.049174
0.363498 0.142713 0.053604
0.393557 0.154514 0.058037
0.423628 0.166320 0.062471
0.453710 0.178130 0.066907
0.483800 0.189944 0.071345
0.513897 0.201761 0.075783
0.544001 0.213579 0.080222
0.574109 0.225400 0.084662
0.604223 0.237223 0.089103
0.634339 0.249047 0.093544
0.664460 0.260873 0.097986
0.694583 0.272699 0.102428
0.724709 0.284527 0.106871
0.754837 0.296355 0.111314
0.784967 0.308185 0.115757
0.815099 0.320015 0.120200
0.845233 0.331846 0.124644
0.875368 0.343677 0.129088
0.905504 0.355509 0.133532
0.935642 0.367341 0.137976
0.036854 0.063283 0.020779
0.037356 0.064145 0.021062
0.065057 0.064412 0.021558
0.097073 0.064474 0.022249
0.129210 0.064531 0.023123
0.161396 0.064593 0.024156
0.190497 0.074791 0.028092
0.219588 0.086212 0.032382
0.248912 0.097725 0.036706
0.278398 0.109301 0.041055
0.308003 0.120925 0.045420
0.337697 0.132583 0.049799
0.367459 0.144268 0.054188
0.397276 0.155974 0.058585
0.427136 0.167697 0.062989
0.457032 0.179435 0.067397
0.486957 0.191183 0.071810
0.516906 0.202942 0.076227
0.546876 0.214708 0.080646
0.576864 0.226482 0.085068
0.606867 0.238261 0.089493
0.636884 0.250046 0.093919
0.666912 0.261835 0.098348
0.696950 0.273628 0.102777
0.726996 0.285425 0.107208
0.757051 0.297225 0.111640
0.787113 0.309027 0.116073
0.817182 0.320833 0.120507
0.847256 0.332640 0.124942
0.877335 0.344449 0.129378
0.907419 0.356261 0.133815
0.937508 0.368074 0.138252
0.055281 0.094924 0.031168
0.055645 0.095549 0.031374
0.065831 0.096551 0.031822
0.097586 0.096618 0.032337
0.129572 0.096682 0.032996
0.161665 0.096739 0.033782
0.193815 0.096796 0.034685
0.225997 0.096857 0.035693
0.256929 0.100873 0.037889
0.285746 0.112186 0.042138
0.314791 0.123590 0.046421
0.344012 0.135062 0.050730
0.373368 0.146587 0.055059
0.402832 0.158155 0.059404
0.432382 0.169757 0.063762
0.462004 0.181387 0.068130
0.491686 0.193040 0.072507
0.521416 0.204712 0.076892
0.551189 0.216402 0.081282
0.580998 0.228105 0.085678
0.610838 0.239820 0.090078
0.640704 0.251546 0.094483
0.670595 0.263281 0.098891
0.700506 0.275025 0.103302
0.730435 0.286775 0.107715
0.760381 0.298532 0.112131
0.790341 0.310295 0.116549
0.820314 0.322062 0.120969
0.850300 0.333835 0.125391
0.880295 0.345612 0.129815
0.910301 0.357392 0.134239
0.940315 0.369176 0.138666
0.073708 0.126566 0.041558
0.073997 0.127063 0.041721
0.074712 0.128289 0.042124
0.098313 0.128757 0.042582
0.130114 0.128823 0.043116
0.162083 0.128888 0.043759
0.194145 0.128948 0.044499
0.226265 0.129004 0.045330
0.258421 0.129061 0.046246
0.290599 0.129122 0.047242
0.322793 0.129187 0.048312
0.352144 0.138255 0.051930
0.380994 0.149582 0.056184
0.410016 0.160976 0.060464
0.439177 0.172425 0.064764
0.468452 0.183918 0.069081
0.497824 0.195450 0.073413
0.527276 0.207013 0.077756
0.556796 0.218603 0.082109
0.586376 0.230216 0.086471
0.616006 0.241849 0.090841
0.645680 0.253500 0.095217
0.675394 0.265165 0.099598
0.705141 0.276844 0.103985
0.734919 0.288535 0.108376
0.764723 0.300237 0.112772
0.794552 0.311948 0.117170
0.824402 0.323667 0.121572
0.854272 0.335395 0.125977
0.884160 0.347129 0.130385
0.914064 0.358869 0.134794
0.943982 0.370615 0.139206
0.092135 0.158207 0.051947
0.092377 0.158623 0.052084
0.092976 0.159652 0.052422
0.099223 0.160897 0.052897
0.130817 0.160963 0.053350
0.162643 0.161029 0.053896
0.194600 0.161094 0.054528
0.226640 0.161156 0.055239
0.258735 0.161213 0.056026
0.290867 0.161269 0.056883
0.323026 0.161326 0.057808
0.355202 0.161387 0.058796
0.387392 0.161450 0.059844
0.418667 0.164372 0.061740
0.447373 0.175643 0.065973
0.476243 0.186977 0.070230
0.505249 0.198365 0.074508
0.534372 0.209799 0.078802
0.563593 0.221271 0.083111
0.592899 0.232777 0.087433
0.622280 0.244312 0.091766
0.651724 0.255873 0.096108
0.681226 0.267455 0.100458
0.710777 0.279057 0.104816
0.740372 0.290677 0.109181
0.770007 0.302311 0.113551
0.799678 0.313960 0.117926
0.829380 0.325622 0.122306
0.859111 0.337294 0.126691
0.888868 0.348977 0.131079
0.918648 0.360669 0.135470
0.948450 0.372370 0.139865
0.110562 0.189849 0.062337
0.110771 0.190208 0.062455
0.111289 0.191098 0.062747
0.112067 0.192434 0.063186
0.131662 0.193102 0.063644
0.163331 0.193168 0.064121
0.195172 0.193235 0.064675
0.227121 0.193301 0.065300
0.259143 0.193363 0.065992
0.291218 0.193422 0.066748
0.323330 0.193478 0.067565
0.355471 0.193534 0.068439
0.387631 0.193592 0.069370
0.419806 0.193652 0.070353
0.451993 0.193715 0.071386
0.484189 0.193780 0.072467
0.513859 0.201745 0.075777
0.542609 0.213033 0.080017
0.571491 0.224372 0.084276
0.600488 0.235757 0.088552
0.629583 0.247180 0.092843
0.658765 0.258637 0.097146
0.688024 0.270124 0.101461
0.717350 0.281638 0.105785
0.746736 0.293175 0.110119
0.776175 0.304733 0.114460
0.805663 0.316310 0.118809
0.835194 0.327904 0.123164
0.864765 0.339514 0.127524
0.894371 0.351138 0.131890
0.924009 0.362774 0.136261
0.953676 0.374422 0.140636
0.128989 0.221490 0.072726
0.129174 0.221808 0.072831
0.129632 0.222595 0.073089
0.130321 0.223779 0.073478
0.132642 0.225244 0.073976
0.164135 0.225308 0.074401
0.195850 0.225374 0.074895
0.227700 0.225441 0.075454
0.259644 0.225507 0.076074
0.291653 0.225570 0.076753
0.323711 0.225630 0.077486
0.355806 0.225687 0.078273
0.387929 0.225743 0.079110
0.420075 0.225799 0.079997
0.452236 0.225857 0.080931
0.484411 0.225917 0.081911
0.516595 0.225979 0.082934
0.548788 0.226044 0.083998
0.580414 0.227875 0.085592
0.609068 0.239125 0.089818
0.637849 0.250425 0.094062
0.666740 0.261768 0.098322
0.695729 0.273149 0.102597
0.724804 0.284564 0.106885
0.753957 0.296010 0.111184
0.783178 0.307482 0.115493
0.812462 0.318979 0.119811
0.841801 0.330498 0.124138
0.871192 0.342037 0.128472
0.900628 0.353594 0.132813
0.930106 0.365168 0.137160
0.959622 0.376756 0.141513
0.147416 0.253131 0.083116
0.147582 0.253417 0.083210
0.147994 0.254125 0.083442
0.148614 0.255190 0.083792
0.149423 0.256579 0.084248
0.165045 0.257449 0.084717
0.196625 0.257514 0.085164
0.228371 0.257580 0.085670
0.260229 0.257647 0.086233
0.292168 0.257713 0.086849
0.324166 0.257776 0.087517
0.356210 0.257838 0.088234
0.388291 0.257896 0.088998
0.420399 0.257952 0.089807
0.452530 0.258008 0.090660
0.484679 0.258064 0.091556
0.516841 0.258122 0.092493
0.549015 0.258182 0.093469
0.581198 0.258244 0.094484
0.613389 0.258308 0.095536
0.645586 0.258374 0.096623
0.675593 0.265243 0.099628
0.704288 0.276510 0.103859
0.733091 0.287818 0.108107
0.761988 0.299163 0.112368
0.790972 0.310542 0.116642
0.820032 0.321951 0.120928
0.849161 0.333388 0.125223
0.878353 0.344849 0.129528
0.907603 0.356333 0.133842
0.936905 0.367837 0.138163
0.966254 0.379360 0.142491
0.165842 0.284773 0.093505
0.165994 0.285033 0.093591
0.166369 0.285678 0.093803
0.166934 0.286647 0.094121
0.167672 0.287914 0.094537
0.168570 0.289456 0.095043
0.197493 0.289654 0.095466
0.229126 0.289719 0.095930
0.260894 0.289786 0.096446
0.292758 0.289853 0.097012
0.324692 0.289919 0.097626
0.356682 0.289983 0.098285
0.388715 0.290045 0.098989
0.420782 0.290104 0.099734
0.452878 0.290162 0.100521
0.484996 0.290217 0.101347
0.517132 0.290273 0.102212
0.549283 0.290329 0.103115
0.581446 0.290387 0.104054
0.613620 0.290447 0.105029
0.645801 0.290509 0.106038
0.677990 0.290572 0.107079
0.710185 0.290637 0.108153
0.742164 0.291380 0.109445
0.770788 0.302618 0.113666
0.799515 0.313896 0.117902
0.828334 0.325211 0.122152
0.857237 0.336559 0.126414
0.886216 0.347936 0.130688
0.915264 0.359340 0.134971
0.944374 0.370769 0.139264
0.973543 0.382221 0.143566
0.184269 0.316414 0.103895
0.184409 0.316653 0.103973
0.184754 0.317246 0.104168
0.185273 0.318138 0.104461
0.185952 0.319303 0.104844
0.186779 0.320724 0.105310
0.198446 0.321795 0.105793
0.229962 0.321859 0.106222
0.261634 0.321925 0.106699
0.293419 0.321992 0.107223
0.325286 0.322059 0.107791
0.357218 0.322124 0.108403
0.389200 0.322189 0.109055
0.421224 0.322251 0.109748
0.453280 0.322312 0.110479
0.485363 0.322370 0.111247
0.517469 0.322427 0.112052
0.549594 0.322482 0.112892
0.581735 0.322538 0.113767
0.613888 0.322595 0.114675
0.646052 0.322653 0.115616
0.678224 0.322712 0.116589
0.710405 0.322773 0.117592
0.742592 0.322836 0.118626
0.774785 0.322901 0.119689
0.806982 0.322967 0.120779
0.837334 0.328745 0.123479
0.865996 0.339997 0.127706
0.894746 0.351285 0.131946
0.923579 0.362605 0.136197
0.952486 0.373954 0.140460
0.981461 0.385330 0.144733
0.202696 0.348056 0.114284
0.202825 0.348277 0.114357
0.203145 0.348827 0.114538
0.203627 0.349654 0.114809
0.204256 0.350734 0.115164
0.205024 0.352052 0.115597
0.205922 0.353595 0.116103
0.230873 0.354000 0.116538
0.262445 0.354065 0.116982
0.294146 0.354131 0.117470
0.325944 0.354198 0.118000
0.357815 0.354265 0.118570
0.389744 0.354330 0.119180
0.421720 0.354395 0.119827
0.453735 0.354458 0.120511
0.485781 0.354519 0.121230
0.517854 0.354578 0.121983
0.549950 0.354636 0.122770
0.582064 0.354691 0.123589
0.614194 0.354747 0.124440
0.646338 0.354803 0.125322
0.678492 0.354860 0.126235
0.710657 0.354918 0.127177
0.742829 0.354977 0.128149
0.775009 0.355038 0.129148
0.807194 0.355101 0.130175
0.839385 0.355165 0.131229
0.871581 0.355230 0.132308
0.903781 0.355297 0.133412
0.932520 0.366115 0.137516
0.961211 0.377380 0.141747
0.989981 0.388675 0.145990
0.221123 0.379697 0.124674
0.221244 0.379904 0.124742
0.221542 0.380416 0.124910
0.221991 0.381188 0.125163
0.222579 0.382197 0.125495
0.223296 0.383427 0.125899
0.224135 0.384868 0.126372
0.231860 0.386141 0.126872
0.263323 0.386205 0.127288
0.294938 0.386270 0.127745
0.326662 0.386337 0.128242
0.358470 0.386404 0.128777
0.390343 0.386470 0.129349
0.422271 0.386536 0.129957
0.454242 0.386601 0.130600
0.486249 0.386664 0.131276
0.518287 0.386726 0.131985
0.550350 0.386786 0.132725
0.582436 0.386844 0.133497
0.614540 0.386901 0.134299
0.646661 0.386956 0.135130
0.678795 0.387012 0.135990
0.710941 0.387068 0.136879
0.743097 0.387125 0.137795
0.775262 0.387183 0.138739
0.807434 0.387243 0.139709
0.839613 0.387303 0.140705
0.871797 0.387366 0.141727
0.903987 0.387429 0.142772
0.936181 0.387494 0.143842
0.968379 0.387560 0.144935
0.999080 0.392247 0.147331
0.239550 0.411338 0.135063
0.239663 0.411532 0.135127
0.239943 0.412013 0.135285
0.240365 0.412737 0.135523
0.240916 0.413684 0.135833
0.241589 0.414839 0.136213
0.242377 0.416193 0.136657
0.243276 0.417735 0.137164
0.264266 0.418346 0.137613
0.295791 0.418410 0.138043
0.327438 0.418476 0.138511
0.359180 0.418543 0.139016
0.390996 0.418610 0.139555
0.422872 0.418676 0.140129
0.454798 0.418742 0.140735
0.486764 0.418807 0.141374
0.518765 0.418871 0.142043
0.550795 0.418933 0.142743
0.582850 0.418993 0.143473
0.614927 0.419052 0.144232
0.647022 0.419110 0.145018
0.679134 0.419166 0.145833
0.711259 0.419221 0.146674
0.743397 0.419277 0.147542
0.775545 0.419333 0.148436
0.807702 0.419390 0.149356
0.839867 0.419448 0.150301
0.872039 0.419508 0.151270
0.904217 0.419569 0.152263
0.936400 0.419630 0.153279
0.968589 0.419694 0.154319
1.000000 0.419758 0.155380
0.257977 0.442980 0.145453
0.258084 0.443163 0.145513
0.258347 0.443616 0.145662
0.258745 0.444298 0.145886
0.259265 0.445191 0.146179
0.259899 0.446280 0.146537
0.260643 0.447557 0.146956
0.261491 0.449013 0.147434
0.265285 0.450487 0.147952
0.296702 0.450551 0.148359
0.328269 0.450616 0.148802
0.359943 0.450682 0.149279
0.391699 0.450749 0.149790
0.423522 0.450816 0.150333
0.455401 0.450882 0.150908
0.487325 0.450948 0.151513
0.519287 0.451013 0.152148
0.551282 0.451077 0.152812
0.583305 0.451140 0.153505
0.615353 0.451201 0.154225
0.647421 0.451260 0.154973
0.679508 0.451318 0.155746
0.711612 0.451375 0.156546
0.743729 0.451431 0.157371
0.775859 0.451486 0.158221
0.807999 0.451542 0.159095
0.840149 0.451598 0.159994
0.872307 0.451655 0.160916
0.904472 0.451714 0.161862
0.936644 0.451773 0.162831
0.968821 0.451834 0.163821
1.000000 0.451895 0.164834
0.276404 0.474621 0.155842
0.276505 0.474794 0.155899
0.276755 0.475223 0.156040
0.277131 0.475869 0.156252
0.277623 0.476714 0.156530
0.278224 0.477746 0.156868
0.278928 0.478955 0.157265
0.279731 0.480334 0.157718
0.280630 0.481877 0.158225
0.297669 0.482692 0.158690
0.329154 0.482756 0.159110
0.360757 0.482821 0.159563
0.392451 0.482888 0.160049
0.424220 0.482955 0.160565
0.456049 0.483022 0.161111
0.487929 0.483088 0.161687
0.519852 0.483154 0.162291
0.551811 0.483219 0.162923
0.583801 0.483283 0.163583
0.615818 0.483346 0.164269
0.647858 0.483408 0.164981
0.679919 0.483468 0.165718
0.711999 0.483527 0.166481
0.744094 0.483584 0.167267
0.776204 0.483640 0.168078
0.808326 0.483695 0.168912
0.840459 0.483751 0.169769
0.872602 0.483807 0.170650
0.904753 0.483863 0.171553
0.936912 0.483921 0.172477
0.969077 0.483979 0.173424
1.000000 0.484038 0.174391
0.294831 0.506263 0.166232
0.294927 0.506427 0.166286
0.295164 0.506834 0.166419
0.295521 0.507448 0.166621
0.295989 0.508251 0.166885
0.296560 0.509231 0.167206
0.297229 0.510380 0.167584
0.297992 0.511691 0.168014
0.298847 0.513158 0.168496
0.299789 0.514776 0.169027
0.330091 0.514897 0.169433
0.361620 0.514961 0.169865
0.393251 0.515027 0.170327
0.424963 0.515094 0.170819
0.456742 0.515161 0.171340
0.488577 0.515227 0.171889
0.520458 0.515294 0.172466
0.552379 0.515360 0.173069
0.584335 0.515425 0.173699
0.616320 0.515489 0.174354
0.648332 0.515552 0.175035
0.680366 0.515614 0.175739
0.712421 0.515675 0.176468
0.744493 0.515734 0.177220
0.776581 0.515792 0.177996
0.808683 0.515849 0.178794
0.840798 0.515905 0.179614
0.872924 0.515960 0.180456
0.905060 0.516016 0.181320
0.937205 0.516072 0.182205
0.969357 0.516128 0.183111
1.000000 0.516186 0.184038
0.313258 0.537904 0.176621
0.313349 0.538061 0.176673
0.313575 0.538449 0.176800
0.313916 0.539033 0.176992
0.314361 0.539798 0.177243
0.314905 0.540732 0.177550
0.315543 0.541828 0.177910
0.316271 0.543078 0.178320
0.317086 0.544477 0.178779
0.317984 0.546020 0.179286
0.331081 0.547039 0.179769
0.362531 0.547102 0.180181
0.394096 0.547167 0.180623
0.425750 0.547233 0.181093
0.457477 0.547300 0.181591
0.489265 0.547366 0.182116
0.521104 0.547433 0.182668
0.552987 0.547500 0.183245
0.584907 0.547566 0.183848
0.616860 0.547631 0.184475
0.648841 0.547695 0.185127
0.680848 0.547759 0.185802
0.712876 0.547821 0.186500
0.744924 0.547882 0.187221
0.776990 0.547942 0.187965
0.809071 0.548001 0.188730
0.841167 0.548058 0.189517
0.873275 0.548114 0.190324
0.905394 0.548170 0.191153
0.937524 0.548225 0.192002
0.969662 0.548281 0.192872
1.000000 0.548337 0.193761
0.331685 0.569546 0.187011
0.331772 0.569695 0.187060
0.331988 0.570066 0.187182
0.332313 0.570624 0.187365
0.332739 0.571355 0.187605
0.333259 0.572248 0.187898
0.333868 0.573295 0.188242
0.334564 0.574490 0.188634
0.335343 0.575827 0.189073
0.336202 0.577303 0.189558
0.337140 0.578912 0.190086
0.363488 0.579243 0.190509
0.394985 0.579307 0.190932
0.426579 0.579373 0.191383
0.458253 0.579439 0.191860
0.489993 0.579505 0.192363
0.521788 0.579572 0.192892
0.553631 0.579639 0.193446
0.585515 0.579706 0.194024
0.617435 0.579772 0.194626
0.649385 0.579837 0.195251
0.681363 0.579902 0.195900
0.713364 0.579965 0.196570
0.745388 0.580028 0.197263
0.777430 0.580089 0.197977
0.809490 0.580149 0.198713
0.841565 0.580209 0.199469
0.873654 0.580266 0.200245
0.905755 0.580323 0.201042
0.937868 0.580379 0.201858
0.969991 0.580434 0.202695
1.000000 0.580490 0.203550
0.350112 0.601187 0.197400
0.350195 0.601330 0.197447
0.350402 0.601685 0.197564
0.350714 0.602220 0.197740
0.351121 0.602920 0.197969
0.351619 0.603775 0.198250
0.352203 0.604778 0.198580
0.352870 0.605923 0.198956
0.353617 0.607205 0.199376
0.354440 0.608619 0.199841
0.355339 0.610162 0.200347
0.364501 0.611385 0.200848
0.395918 0.611448 0.201254
0.427450 0.611513 0.201687
0.459069 0.611578 0.202145
0.490759 0.611645 0.202628
0.522510 0.611711 0.203137
0.554312 0.611778 0.203669
0.586159 0.611845 0.204224
0.618044 0.611912 0.204803
0.649962 0.611978 0.205405
0.681910 0.612043 0.206028
0.713885 0.612108 0.206673
0.745882 0.612171 0.207340
0.777901 0.612234 0.208027
0.809938 0.612296 0.208735
0.841992 0.612357 0.209464
0.874061 0.612416 0.210212
0.906144 0.612475 0.210979
0.938239 0.612532 0.211766
0.970346 0.612588 0.212571
1.000000 0.612644 0.213396
0.368539 0.632828 0.207790
0.368619 0.632966 0.207835
0.368817 0.633307 0.207947
0.369116 0.633820 0.208115
0.369508 0.634492 0.208336
0.369986 0.635313 0.208606
0.370547 0.636276 0.208922
0.371187 0.637376 0.209283
0.371904 0.638607 0.209687
0.372695 0.639965 0.210133
0.373558 0.641447 0.210620
0.374492 0.643050 0.211146
0.396893 0.643590 0.211587
0.428361 0.643653 0.212003
0.459923 0.643718 0.212444
0.491563 0.643784 0.212909
0.523268 0.643850 0.213398
0.555029 0.643917 0.213910
0.586837 0.643984 0.214446
0.618687 0.644051 0.215003
0.650572 0.644117 0.215582
0.682490 0.644184 0.216183
0.714436 0.644249 0.216805
0.746407 0.644314 0.217448
0.778401 0.644378 0.218110
0.810415 0.644441 0.218793
0.842447 0.644503 0.219496
0.874496 0.644564 0.220217
0.906559 0.644624 0.220958
0.938637 0.644683 0.221717
0.970726 0.644741 0.222495
1.000000 0.644797 0.223290
0.386966 0.664470 0.218179
0.387043 0.664602 0.218223
0.387234 0.664930 0.218330
0.387521 0.665424 0.218492
0.387898 0.666070 0.218705
0.388358 0.666860 0.218964
0.388897 0.667786 0.219268
0.389513 0.668844 0.219616
0.390203 0.670029 0.220005
0.390964 0.671336 0.220434
0.391795 0.672763 0.220902
0.392694 0.674306 0.221409
0.397927 0.675731 0.221928
0.429311 0.675795 0.222329
0.460816 0.675859 0.222754
0.492404 0.675924 0.223203
0.524062 0.675990 0.223674
0.555780 0.676056 0.224169
0.587549 0.676123 0.224685
0.619362 0.676190 0.225223
0.651214 0.676257 0.225782
0.683101 0.676323 0.226361
0.715018 0.676389 0.226962
0.746962 0.676455 0.227582
0.778931 0.676520 0.228222
0.810921 0.676584 0.228882
0.842930 0.676647 0.229560
0.874958 0.676709 0.230258
0.907002 0.676771 0.230973
0.939060 0.676831 0.231707
0.971132 0.676890 0.232459
1.000000 0.676949 0.233228
0.405393 0.696111 0.228569
0.405467 0.696239 0.228611
0.405651 0.696554 0.228714
0.405928 0.697030 0.228871
0.406291 0.697653 0.229075
0.406734 0.698414 0.229325
0.407254 0.699307 0.229618
0.407848 0.700327 0.229953
0.408512 0.701468 0.230328
0.409246 0.702729 0.230742
0.410048 0.704104 0.231193
0.410914 0.705592 0.231682
0.411844 0.707190 0.232206
0.430303 0.707936 0.232665
0.461745 0.707999 0.233075
0.493280 0.708064 0.233509
0.524890 0.708129 0.233964
0.556564 0.708196 0.234441
0.588293 0.708262 0.234940
0.620069 0.708329 0.235460
0.651887 0.708396 0.236000
0.683742 0.708463 0.236560
0.715630 0.708529 0.237141
0.747546 0.708595 0.237740
0.779488 0.708661 0.238359
0.811454 0.708726 0.238997
0.843441 0.708790 0.239654
0.875447 0.708853 0.240328
0.907470 0.708916 0.241021
0.939509 0.708977 0.241731
0.971563 0.709038 0.242459
1.000000 0.709098 0.243204
0.423820 0.727753 0.238958
0.423891 0.727875 0.238999
0.424069 0.728180 0.239099
0.424336 0.728640 0.239249
0.424686 0.729241 0.239447
0.425114 0.729975 0.239688
0.425616 0.730837 0.239971
0.426189 0.731821 0.240294
0.426831 0.732924 0.240656
0.427540 0.734141 0.241056
0.428313 0.735469 0.241492
0.429150 0.736906 0.241964
0.430049 0.738449 0.242470
0.431360 0.740077 0.243009
0.462711 0.740141 0.243406
0.494191 0.740205 0.243825
0.525752 0.740269 0.244265
0.557381 0.740335 0.244727
0.589069 0.740401 0.245209
0.620808 0.740468 0.245712
0.652591 0.740535 0.246235
0.684413 0.740602 0.246777
0.716270 0.740669 0.247339
0.748158 0.740735 0.247920
0.780074 0.740801 0.248519
0.812015 0.740867 0.249137
0.843978 0.740932 0.249773
0.875962 0.740996 0.250426
0.907964 0.741060 0.251097
0.939983 0.741122 0.251786
0.972018 0.741184 0.252491
1.000000 0.741245 0.253213
0.442247 0.759394 0.249348
0.442316 0.759513 0.249387
0.442487 0.759807 0.249483
0.442746 0.760251 0.249629
0.443084 0.760832 0.249820
0.443498 0.761543 0.250053
0.443983 0.762376 0.250327
0.444537 0.763327 0.250639
0.445158 0.764393 0.250989
0.445843 0.765570 0.251376
0.446591 0.766855 0.251797
0.447401 0.768244 0.252254
0.448270 0.769737 0.252744
0.449198 0.771330 0.253267
0.463720 0.772282 0.253744
0.495136 0.772346 0.254150
0.526647 0.772410 0.254576
0.558230 0.772475 0.255023
0.589876 0.772541 0.255491
0.621576 0.772607 0.255978
0.653324 0.772674 0.256484
0.685113 0.772741 0.257010
0.716939 0.772808 0.257555
0.748798 0.772875 0.258118
0.780687 0.772941 0.258699
0.812602 0.773007 0.259298
0.844541 0.773073 0.259914
0.876503 0.773138 0.260548
0.908483 0.773202 0.261200
0.940482 0.773266 0.261867
0.972498 0.773329 0.262552
1.000000 0.773391 0.263253
0.460673 0.791036 0.259737
0.460740 0.791150 0.259775
0.460906 0.791436 0.259869
0.461157 0.791865 0.260010
0.461484 0.792428 0.260194
0.461885 0.793115 0.260420
0.462354 0.793922 0.260685
0.462891 0.794843 0.260987
0.463492 0.795875 0.261326
0.464155 0.797014 0.261700
0.464880 0.798258 0.262109
0.465664 0.799604 0.262551
0.466506 0.801050 0.263025
0.467404 0.802593 0.263532
0.468358 0.804231 0.264070
0.496116 0.804487 0.264483
0.527574 0.804551 0.264897
0.559111 0.804615 0.265330
0.590714 0.804681 0.265784
0.622374 0.804747 0.266256
0.654085 0.804813 0.266748
0.685841 0.804880 0.267258
0.717636 0.804947 0.267786
0.749465 0.805014 0.268332
0.781326 0.805080 0.268896
0.813216 0.805147 0.269478
0.845130 0.805213 0.270077
0.877068 0.805279 0.270692
0.909027 0.805344 0.271324
0.941005 0.805408 0.271973
0.973001 0.805472 0.272638
1.000000 0.805535 0.273319
0.479100 0.822677 0.270127
0.479165 0.822788 0.270163
0.479326 0.823065 0.270254
0.479569 0.823481 0.270391
0.479886 0.824026 0.270570
0.480274 0.824692 0.270789
0.480730 0.825474 0.271045
0.481250 0.826367 0.271338
0.481832 0.827368 0.271667
0.482475 0.828472 0.272030
0.483178 0.829678 0.272426
0.483938 0.830983 0.272854
0.484754 0.832385 0.273314
0.485626 0.833882 0.273806
0.486551 0.835471 0.274328
0.497142 0.836628 0.274824
0.528533 0.836692 0.275226
0.560022 0.836756 0.275647
0.591581 0.836821 0.276087
0.623202 0.836886 0.276545
0.654876 0.836952 0.277023
0.686597 0.837019 0.277518
0.718359 0.837086 0.278031
0.750159 0.837153 0.278562
0.781992 0.837220 0.279110
0.813854 0.837286 0.279675
0.845744 0.837353 0.280257
0.877658 0.837419 0.280855
0.909595 0.837485 0.281470
0.941552 0.837550 0.282101
0.973528 0.837614 0.282747
1.000000 0.837678 0.283409
0.497527 0.854318 0.280516
0.497590 0.854426 0.280552
0.497746 0.854694 0.280640
0.497982 0.855099 0.280772
0.498290 0.855628 0.280946
0.498666 0.856274 0.281158
0.499108 0.857033 0.281408
0.499613 0.857899 0.281692
0.500178 0.858870 0.282011
0.500803 0.859942 0.282363
0.501484 0.861113 0.282747
0.502222 0.862380 0.283163
0.503015 0.863741 0.283610
0.503861 0.865194 0.284087
0.504759 0.866737 0.284594
0.505710 0.868368 0.285130
