ProPhoto to sRGB brightness only.cube
# input/output colorspace: ProPhoto, gamma 1.8
# github.com/abpy/gamut-fix, Aaron Buchler
# Gamut compression/mapping
# Saturation (no compression)
# Brightness Input gamut: ProPhoto
# Output gamut: sRGB
LUT_3D_SIZE 8
DOMAIN_MIN 0.000000 0.000000 0.000000
DOMAIN_MAX 0.903226 0.903226 0.903226
0.000000 0.000000 0.000000
0.128858 0.000000 0.000000
0.255766 0.000000 0.000000
0.374791 0.000000 0.000000
0.476495 0.000000 0.000000
0.553183 0.000000 0.000000
0.603742 0.000000 0.000000
0.632658 0.000000 0.000000
0.000000 0.129032 0.000000
0.129032 0.129032 0.000000
0.257924 0.128987 0.000000
0.379547 0.125644 0.000000
0.482822 0.109568 0.000000
0.560347 0.059133 0.000000
0.611238 0.000000 0.000000
0.640240 0.000000 0.000000
0.000000 0.258065 0.000000
0.129032 0.258065 0.000000
0.258065 0.258065 0.000000
0.386136 0.257818 0.000000
0.496371 0.251707 0.000000
0.577215 0.231824 0.000000
0.629366 0.191077 0.000000
0.658723 0.114592 0.000000
0.000000 0.387097 0.000000
0.129032 0.387097 0.000000
0.258065 0.387097 0.000000
0.387097 0.387097 0.000000
0.510268 0.385730 0.000000
0.599960 0.374652 0.000000
0.655405 0.349582 0.000000
0.685734 0.308877 0.000000
0.000000 0.516129 0.000000
0.129032 0.516129 0.000000
0.258065 0.516129 0.000000
0.387097 0.516129 0.000000
0.516088 0.516121 0.000000
0.623889 0.511412 0.000000
0.687015 0.494226 0.000000
0.719616 0.464993 0.000000
0.000000 0.642905 0.000000
0.126529 0.643346 0.000000
0.257302 0.644193 0.000000
0.386949 0.644902 0.000000
0.516126 0.645154 0.000000
0.641193 0.643908 0.000000
0.720790 0.632144 0.000000
0.758260 0.609282 0.000000
0.000000 0.754308 0.000000
0.096934 0.755812 0.000000
0.244321 0.759299 0.000000
0.380294 0.763871 0.000000
0.513188 0.768563 0.000000
0.644332 0.772296 0.000000
0.750382 0.762176 0.000000
0.798186 0.742313 0.000000
0.000000 0.838298 0.000000
0.000000 0.840833 0.000000
0.195453 0.847006 0.000000
0.351338 0.855976 0.000000
0.494725 0.867047 0.000000
0.633411 0.879389 0.000000
0.768288 0.891686 0.000000
0.834529 0.860655 0.000000
0.000000 0.000000 0.129032
0.129032 0.000000 0.129032
0.257079 0.000000 0.128978
0.376945 0.000000 0.128247
0.479220 0.000000 0.125501
0.556228 0.000000 0.118976
0.606915 0.000000 0.107078
0.635864 0.000000 0.088141
0.000000 0.129032 0.129032
0.129032 0.129032 0.129032
0.258061 0.129031 0.129032
0.381186 0.126381 0.128580
0.485346 0.111099 0.126101
0.563306 0.062392 0.119790
0.614366 0.000000 0.108070
0.643413 0.000000 0.089350
0.000000 0.258065 0.129032
0.129032 0.258065 0.129032
0.258065 0.258065 0.129032
0.386579 0.257931 0.128993
0.498347 0.252340 0.127328
0.579945 0.232877 0.121632
0.632378 0.192528 0.110389
0.661817 0.116908 0.092204
0.000000 0.387097 0.129032
0.129032 0.387097 0.129032
0.258065 0.387097 0.129032
0.387097 0.387097 0.129032
0.511299 0.385970 0.128566
0.602300 0.375286 0.124137
0.658241 0.350454 0.113735
0.688716 0.309926 0.096348
0.000000 0.516129 0.129032
0.129032 0.516129 0.129032
0.258065 0.516129 0.129032
0.387097 0.516129 0.129032
0.516120 0.516127 0.129031
0.625590 0.511800 0.126774
0.689611 0.494887 0.117783
0.722468 0.465767 0.101486
0.000000 0.642911 0.127931
0.126537 0.643351 0.128147
0.257305 0.644196 0.128561
0.386950 0.644903 0.128906
0.516126 0.645154 0.129029
0.641903 0.644150 0.128461
0.723061 0.632782 0.121441
0.760994 0.610031 0.106329
0.000000 0.754327 0.117512
0.096970 0.755831 0.118407
0.244337 0.759317 0.120465
0.380303 0.763885 0.123132
0.513193 0.768573 0.125835
0.644334 0.772301 0.127961
0.752118 0.762949 0.122021
0.800820 0.743198 0.107257
0.000000 0.838331 0.081593
0.000000 0.840865 0.083774
0.195491 0.847037 0.088925
0.351361 0.856006 0.096060
0.494742 0.867075 0.104396
0.633423 0.879414 0.113194
0.768411 0.891725 0.121518
0.837052 0.861854 0.098418
0.000000 0.000000 0.258065
0.129032 0.000000 0.258065
0.258063 0.000000 0.258064
0.381349 0.000000 0.257766
0.485600 0.000000 0.256199
0.563604 0.000000 0.252548
0.614679 0.000000 0.246208
0.643729 0.000000 0.237020
0.000000 0.129032 0.258065
0.129032 0.129032 0.258065
0.258065 0.129032 0.258065
0.384317 0.127787 0.257942
0.491222 0.114624 0.256673
0.570477 0.069826 0.253173
0.622028 0.000000 0.246899
0.651210 0.000000 0.237740
0.000000 0.258065 0.258065
0.129032 0.258065 0.258065
0.258065 0.258065 0.258065
0.387063 0.258056 0.258063
0.502816 0.253773 0.257332
0.586546 0.235422 0.254294
0.639769 0.196075 0.248306
0.669438 0.122495 0.239300
0.000000 0.387097 0.258065
0.129032 0.387097 0.258065
0.258065 0.387097 0.258065
0.387097 0.387097 0.258065
0.513385 0.386456 0.257912
0.607895 0.376808 0.255639
0.665191 0.352596 0.250070
0.696065 0.312516 0.241308
0.000000 0.516129 0.258065
0.129032 0.516129 0.258065
0.258065 0.516129 0.258065
0.387097 0.516129 0.258065
0.516129 0.516129 0.258065
0.629520 0.512677 0.257034
0.695945 0.496485 0.252236
0.729492 0.467669 0.243821
0.000000 0.642926 0.257438
0.126555 0.643364 0.257561
0.257312 0.644205 0.257796
0.386952 0.644907 0.257993
0.516126 0.645155 0.258063
0.643319 0.644620 0.257888
0.728544 0.634296 0.254288
0.767723 0.611858 0.246339
0.000000 0.754376 0.251637
0.097062 0.755878 0.252124
0.244377 0.759359 0.253253
0.380326 0.763920 0.254732
0.513207 0.768599 0.256250
0.644341 0.772316 0.257455
0.756182 0.764777 0.254754
0.807290 0.745360 0.247006
0.000000 0.838412 0.234066
0.000000 0.840945 0.235012
0.195586 0.847115 0.237315
0.351418 0.856080 0.240652
0.494782 0.867143 0.244759
0.633453 0.879476 0.249321
0.768680 0.891817 0.253860
0.843230 0.864835 0.242975
0.000000 0.000000 0.387097
0.129032 0.000000 0.387097
0.258065 0.000000 0.387097
0.385463 0.000000 0.386860
0.494091 0.000000 0.385200
0.574147 0.000000 0.382071
0.625989 0.000000 0.377182
0.655245 0.000000 0.370453
0.000000 0.129032 0.387097
0.129032 0.129032 0.387097
0.258065 0.129032 0.387097
0.386692 0.128851 0.387081
0.498934 0.119169 0.385964
0.580730 0.079577 0.382989
0.633213 0.000000 0.378112
0.662650 0.000000 0.371356
0.000000 0.258065 0.387097
0.129032 0.258065 0.387097
0.258065 0.258065 0.387097
0.387097 0.258065 0.387097
0.508325 0.255545 0.386783
0.595970 0.239057 0.384572
0.650615 0.201245 0.379978
0.680681 0.130467 0.373290
0.000000 0.387097 0.387097
0.129032 0.387097 0.387097
0.258065 0.387097 0.387097
0.387097 0.387097 0.387097
0.515317 0.386907 0.387064
0.615724 0.378947 0.385708
0.675421 0.355763 0.381820
0.706984 0.316371 0.375488
0.000000 0.516129 0.387097
0.129032 0.516129 0.387097
0.258065 0.516129 0.387097
0.387097 0.516129 0.387097
0.516129 0.516129 0.387097
0.634634 0.513801 0.386595
0.705195 0.498788 0.383388
0.739942 0.470488 0.377494
0.000000 0.642948 0.386649
0.126582 0.643383 0.386737
0.257322 0.644218 0.386906
0.386955 0.644912 0.387046
0.516126 0.645155 0.387095
0.644600 0.645016 0.387062
0.736372 0.636386 0.384883
0.777709 0.614528 0.379349
0.000000 0.754449 0.382491
0.097199 0.755948 0.382839
0.244436 0.759422 0.383646
0.380361 0.763973 0.384706
0.513227 0.768637 0.385795
0.644350 0.772337 0.386661
0.761599 0.767274 0.385349
0.816856 0.748527 0.380022
0.000000 0.838533 0.370128
0.000000 0.841065 0.370784
0.195729 0.847232 0.372386
0.351505 0.856192 0.374719
0.494844 0.867247 0.377610
0.633498 0.879568 0.380845
0.768998 0.891940 0.384103
0.852296 0.869339 0.377608
0.000000 0.000000 0.516129
0.129032 0.000000 0.516129
0.258065 0.000000 0.516129
0.387097 0.000000 0.516129
0.502844 0.000000 0.512035
0.586640 0.000000 0.507743
0.639832 0.000000 0.502630
0.669441 0.000000 0.496474
0.000000 0.129032 0.516129
0.129032 0.129032 0.516129
0.258065 0.129032 0.516129
0.387097 0.129032 0.516129
0.506638 0.123617 0.513504
0.592863 0.090130 0.509324
0.646934 0.000000 0.504125
0.676787 0.000000 0.497856
0.000000 0.258065 0.516129
0.129032 0.258065 0.516129
0.258065 0.258065 0.516129
0.387097 0.258065 0.516129
0.513153 0.257101 0.515628
0.607062 0.243330 0.512422
0.663998 0.207558 0.507345
0.694670 0.139984 0.500957
0.000000 0.387097 0.516129
0.129032 0.387097 0.516129
0.258065 0.387097 0.516129
0.387097 0.387097 0.516129
0.516108 0.387092 0.516128
0.624718 0.381418 0.515023
0.688163 0.359725 0.510909
0.720724 0.321228 0.504760
0.000000 0.516129 0.516129
0.129032 0.516129 0.516129
0.258065 0.516129 0.516129
0.387097 0.516129 0.516129
0.516129 0.516129 0.516129
0.639772 0.514935 0.515924
0.716717 0.501633 0.513516
0.753276 0.474076 0.508262
0.000000 0.642977 0.515778
0.126617 0.643409 0.515847
0.257335 0.644235 0.515980
0.386959 0.644919 0.516090
0.516126 0.645156 0.516128
0.645135 0.645156 0.516128
0.745751 0.638767 0.514837
0.790494 0.617869 0.510612
0.000000 0.754545 0.512495
0.097379 0.756040 0.512770
0.244514 0.759505 0.513407
0.380406 0.764042 0.514245
0.513253 0.768687 0.515105
0.644362 0.772364 0.515788
0.767285 0.770028 0.515300
0.829017 0.752495 0.511369
0.000000 0.838693 0.502779
0.000000 0.841223 0.503292
0.195916 0.847386 0.504547
0.351617 0.856338 0.506378
0.494924 0.867383 0.508651
0.633558 0.879689 0.511201
0.769279 0.892079 0.513785
0.863663 0.875275 0.509953
0.000000 0.000000 0.644660
0.128741 0.000000 0.644666
0.257903 0.000000 0.644683
0.386986 0.000000 0.644706
0.515994 0.000000 0.644735
0.599348 0.000000 0.626602
0.654820 0.000000 0.619576
0.685008 0.000000 0.612629
0.000000 0.128986 0.644770
0.128805 0.128987 0.644775
0.257939 0.128988 0.644789
0.387011 0.128991 0.644809
0.516054 0.128987 0.644834
0.605123 0.099951 0.629166
0.661809 0.000000 0.621867
0.692325 0.000000 0.614675
0.000000 0.258052 0.644970
0.128922 0.258052 0.644974
0.258004 0.258052 0.644982
0.387056 0.258053 0.644994
0.516099 0.258054 0.645009
0.618025 0.247526 0.634756
0.678558 0.214325 0.627121
0.710141 0.150038 0.619469
0.000000 0.387095 0.645120
0.129009 0.387095 0.645121
0.258052 0.387095 0.645124
0.387089 0.387095 0.645128
0.516124 0.387095 0.645133
0.633082 0.383719 0.640921
0.702104 0.364064 0.633803
0.736087 0.326645 0.625900
0.000000 0.516129 0.645161
0.129032 0.516129 0.645161
0.258064 0.516129 0.645161
0.387097 0.516129 0.645161
0.516129 0.516129 0.645161
0.643520 0.515764 0.644716
0.729381 0.504768 0.640129
0.768441 0.478158 0.632792
0.000000 0.643007 0.644710
0.126587 0.643435 0.644808
0.257334 0.644253 0.644989
0.386962 0.644927 0.645124
0.516127 0.645156 0.645161
0.645161 0.645161 0.645161
0.755641 0.641118 0.644079
0.805343 0.621643 0.638709
0.000000 0.754660 0.642101
0.097575 0.756152 0.642341
0.244605 0.759606 0.642891
0.380462 0.764126 0.643598
0.513284 0.768748 0.644314
0.644376 0.772397 0.644882
0.771902 0.772526 0.644887
0.843242 0.757040 0.641763
0.000000 0.838888 0.634064
0.000000 0.841416 0.634491
0.196145 0.847573 0.635534
0.351755 0.856517 0.637056
0.495023 0.867549 0.638946
0.633631 0.879837 0.641070
0.769469 0.892223 0.643228
0.876648 0.882651 0.641379
0.000000 0.000000 0.764461
0.122324 0.000000 0.764501
0.254308 0.000000 0.764600
0.384431 0.000000 0.764748
0.514057 0.000000 0.764941
0.636841 0.000000 0.764835
0.669150 0.000000 0.723515
0.700342 0.000000 0.714628
0.000000 0.127801 0.765165
0.122817 0.127806 0.765203
0.254582 0.127819 0.765298
0.384626 0.127839 0.765441
0.514210 0.127864 0.765626
0.638380 0.124334 0.765705
0.676008 0.000000 0.726670
0.707650 0.000000 0.717365
0.000000 0.257486 0.766792
0.123954 0.257489 0.766827
0.255214 0.257495 0.766913
0.385077 0.257505 0.767041
0.514563 0.257518 0.767207
0.641105 0.256457 0.767331
0.692395 0.220609 0.734225
0.725449 0.159508 0.723974
0.000000 0.386799 0.768925
0.125433 0.386801 0.768954
0.256042 0.386805 0.769026
0.385667 0.386811 0.769132
0.515025 0.386818 0.769270
0.643513 0.386617 0.769415
0.715224 0.368115 0.744792
0.751388 0.331989 0.733405
0.000000 0.515992 0.771138
0.126956 0.515993 0.771159
0.256898 0.515995 0.771212
0.386277 0.515999 0.771291
0.515500 0.516003 0.771393
0.644636 0.516004 0.771514
0.741013 0.507638 0.756832
0.783723 0.482261 0.744669
0.000000 0.644992 0.772970
0.128080 0.645018 0.772985
0.257568 0.645065 0.773023
0.386773 0.645105 0.773075
0.515892 0.645121 0.773137
0.644976 0.645124 0.773208
0.763913 0.642942 0.767942
0.820550 0.625378 0.756450
0.000000 0.754617 0.766117
0.093408 0.756114 0.766639
0.242931 0.759581 0.767870
0.379577 0.764115 0.769538
0.512847 0.768750 0.771366
0.644219 0.772406 0.773029
0.774193 0.774193 0.774193
0.858155 0.761727 0.766446
0.000000 0.839002 0.760869
0.000000 0.841534 0.761432
0.194903 0.847699 0.762795
0.351166 0.856653 0.764749
0.494735 0.867693 0.767112
0.633522 0.879980 0.769668
0.769499 0.892359 0.772142
0.890214 0.891657 0.771795
0.000000 0.000000 0.863033
0.095025 0.000000 0.863116
0.240223 0.000000 0.863322
0.374488 0.000000 0.863633
0.506267 0.000000 0.864039
0.633566 0.000000 0.864447
0.719879 0.000000 0.852429
0.713912 0.000000 0.798982
0.000000 0.123047 0.864514
0.096423 0.123060 0.864597
0.240891 0.123091 0.864801
0.374955 0.123139 0.865108
0.506633 0.123201 0.865510
0.634672 0.121423 0.865932
0.726046 0.086093 0.856329
0.721201 0.000000 0.802286
0.000000 0.254986 0.868124
0.099771 0.254993 0.868204
0.242517 0.255010 0.868403
0.376095 0.255036 0.868702
0.507528 0.255070 0.869093
0.636854 0.254636 0.869538
0.740555 0.242675 0.866377
0.738967 0.167416 0.810425
0.000000 0.385205 0.873377
0.104506 0.385210 0.873453
0.244875 0.385222 0.873643
0.377755 0.385239 0.873929
0.508831 0.385263 0.874302
0.638952 0.385233 0.874751
0.753538 0.380309 0.874843
0.764878 0.336589 0.822526
0.000000 0.514951 0.879881
0.110172 0.514955 0.879953
0.247785 0.514964 0.880130
0.379812 0.514977 0.880397
0.510447 0.514995 0.880745
0.640504 0.515016 0.881169
0.763183 0.513230 0.881462
0.797190 0.485818 0.838074
0.000000 0.644233 0.887172
0.116007 0.644279 0.887241
0.250946 0.644371 0.887410
0.382102 0.644459 0.887659
0.512266 0.644511 0.887976
0.642015 0.644532 0.888358
0.769833 0.644181 0.888754
0.833941 0.628508 0.856649
0.000000 0.769607 0.894257
0.115677 0.769868 0.894343
0.251243 0.770471 0.894552
0.382776 0.771260 0.894851
0.513203 0.772096 0.895217
0.643110 0.772852 0.895630
0.772642 0.773423 0.896074
0.871360 0.765863 0.877796
0.000000 0.838496 0.868806
0.000000 0.841043 0.869795
0.183553 0.847246 0.872250
0.344850 0.856258 0.875957
0.490657 0.867379 0.880835
0.630969 0.879770 0.886875
0.768235 0.892284 0.894189
0.903221 0.903221 0.903221
