ProPhoto to sRGB saturation only.cube
# input/output colorspace: ProPhoto, gamma 1.8
# github.com/abpy/gamut-fix, Aaron Buchler
# Gamut compression/mapping
# Saturation Input gamut: ProPhoto
# Brightness (no compression)
# Output gamut: sRGB
LUT_3D_SIZE 8
DOMAIN_MIN 0.000000 0.000000 0.000000
DOMAIN_MAX 0.903226 0.903226 0.903226
0.000000 0.000000 0.000000
0.120631 0.047361 0.017789
0.241262 0.094721 0.035578
0.361893 0.142082 0.053367
0.482524 0.189443 0.071156
0.603154 0.236804 0.088945
0.723785 0.284164 0.106735
0.844416 0.331525 0.124524
0.073708 0.126566 0.041558
0.130114 0.128823 0.043116
0.258421 0.129061 0.046246
0.380994 0.149582 0.056184
0.497824 0.195450 0.073413
0.616006 0.241849 0.090841
0.734919 0.288535 0.108376
0.854272 0.335395 0.125977
0.147416 0.253131 0.083116
0.149423 0.256579 0.084248
0.260229 0.257647 0.086233
0.388291 0.257896 0.088998
0.516841 0.258122 0.092493
0.645586 0.258374 0.096623
0.761988 0.299163 0.112368
0.878353 0.344849 0.129528
0.221123 0.379697 0.124674
0.222579 0.382197 0.125495
0.263323 0.386205 0.127288
0.390343 0.386470 0.129349
0.518287 0.386726 0.131985
0.646661 0.386956 0.135130
0.775262 0.387183 0.138739
0.903987 0.387429 0.142772
0.294831 0.506263 0.166232
0.295989 0.508251 0.166885
0.298847 0.513158 0.168496
0.393251 0.515027 0.170327
0.520458 0.515294 0.172466
0.648332 0.515552 0.175035
0.776581 0.515792 0.177996
0.905060 0.516016 0.181320
0.368539 0.632828 0.207790
0.369508 0.634492 0.208336
0.371904 0.638607 0.209687
0.396893 0.643590 0.211587
0.523268 0.643850 0.213398
0.650572 0.644117 0.215582
0.778401 0.644378 0.218110
0.906559 0.644624 0.220958
0.442247 0.759394 0.249348
0.443084 0.760832 0.249820
0.445158 0.764393 0.250989
0.448270 0.769737 0.252744
0.526647 0.772410 0.254576
0.653324 0.772674 0.256484
0.780687 0.772941 0.258699
0.908483 0.773202 0.261200
0.515954 0.885960 0.290906
0.516695 0.887231 0.291323
0.518529 0.890382 0.292358
0.521286 0.895115 0.293912
0.530570 0.900975 0.295905
0.656539 0.901232 0.297604
0.783398 0.901498 0.299580
0.910801 0.901764 0.301815
0.037675 0.015424 0.103410
0.121591 0.048050 0.118471
0.241803 0.095109 0.122040
0.362243 0.142343 0.128008
0.482756 0.189628 0.135637
0.603302 0.236936 0.144576
0.723864 0.284256 0.154562
0.844437 0.331583 0.165390
0.085927 0.126737 0.121257
0.129032 0.129032 0.129032
0.256894 0.132823 0.128577
0.376520 0.164963 0.129401
0.495002 0.206510 0.135619
0.613920 0.250673 0.145231
0.733244 0.295964 0.156856
0.852861 0.341855 0.169794
0.152271 0.253483 0.124623
0.154938 0.256751 0.127722
0.258065 0.258065 0.129032
0.387173 0.258054 0.131323
0.516284 0.258091 0.137486
0.639911 0.275048 0.145881
0.757838 0.312655 0.157692
0.875496 0.354852 0.170875
0.221772 0.380295 0.127990
0.224355 0.382651 0.139239
0.258981 0.386942 0.140627
0.387760 0.386969 0.143006
0.516890 0.386966 0.153368
0.645860 0.387032 0.161822
0.774779 0.387156 0.168973
0.903684 0.387337 0.175322
0.295123 0.506765 0.166397
0.297035 0.508664 0.174265
0.300636 0.513518 0.175730
0.389977 0.515614 0.176935
0.518250 0.515720 0.180041
0.646948 0.515804 0.188130
0.775687 0.515919 0.195483
0.904466 0.516054 0.202128
0.368783 0.633249 0.207928
0.370287 0.634851 0.213557
0.372834 0.638951 0.214825
0.393336 0.644163 0.216574
0.520675 0.644327 0.217845
0.648686 0.644481 0.221018
0.777099 0.644620 0.227295
0.905647 0.644771 0.233447
0.442458 0.759757 0.249467
0.443719 0.761148 0.253952
0.445854 0.764702 0.255070
0.449690 0.770002 0.256741
0.523870 0.772882 0.258362
0.651170 0.773075 0.259890
0.779041 0.773258 0.263033
0.907272 0.773430 0.268211
0.516141 0.886281 0.291011
0.517237 0.887513 0.294789
0.519105 0.890659 0.295790
0.522043 0.895379 0.297291
0.532311 0.901178 0.299200
0.654252 0.901633 0.300678
0.781551 0.901844 0.302370
0.909339 0.902046 0.305466
0.075350 0.030848 0.206820
0.123519 0.049594 0.237895
0.243183 0.096099 0.236942
0.363293 0.143078 0.239711
0.483606 0.190218 0.244079
0.604019 0.237432 0.249579
0.724486 0.284686 0.256017
0.844988 0.331963 0.263279
0.113440 0.127727 0.234510
0.129318 0.129030 0.257936
0.257234 0.132019 0.256695
0.377089 0.164790 0.250130
0.495570 0.206649 0.249397
0.614428 0.250898 0.252204
0.733678 0.296200 0.257090
0.853221 0.342077 0.263395
0.171855 0.253474 0.242514
0.175000 0.256102 0.251048
0.258065 0.258065 0.258065
0.387097 0.258065 0.258065
0.513788 0.265646 0.257154
0.634381 0.293302 0.256552
0.753040 0.329927 0.258802
0.871443 0.370455 0.263911
0.236809 0.380169 0.246175
0.238663 0.382418 0.249866
0.258066 0.387097 0.258064
0.387097 0.387097 0.258065
0.516129 0.387097 0.258065
0.645162 0.387097 0.258078
0.773612 0.389004 0.259459
0.896259 0.409117 0.263912
0.304541 0.506966 0.249246
0.305869 0.508863 0.251004
0.309876 0.513501 0.255444
0.387097 0.516129 0.258065
0.516129 0.516129 0.258065
0.645181 0.516126 0.258491
0.774346 0.516108 0.262647
0.903489 0.516117 0.268691
0.373652 0.633778 0.252433
0.374699 0.635412 0.253228
0.377731 0.639410 0.257196
0.391646 0.644891 0.259861
0.516251 0.645139 0.259773
0.645353 0.645124 0.261666
0.774702 0.645067 0.270488
0.903919 0.645050 0.279676
0.443544 0.760590 0.255981
0.445568 0.761882 0.268674
0.448709 0.765303 0.278478
0.453001 0.770544 0.280162
0.517962 0.773884 0.281254
0.646566 0.773933 0.281337
0.775521 0.773938 0.286013
0.904715 0.773913 0.296916
0.516605 0.887077 0.291273
0.518302 0.888234 0.301707
0.521128 0.891263 0.311434
0.524277 0.895955 0.312847
0.535362 0.901684 0.314583
0.649024 0.902550 0.315298
0.777313 0.902640 0.315939
0.906003 0.902690 0.321148
0.113026 0.046272 0.310230
0.129953 0.053202 0.356691
0.245010 0.097497 0.355183
0.364774 0.144149 0.355413
0.484838 0.191090 0.357854
0.605073 0.238170 0.361534
0.725409 0.285328 0.366119
0.845810 0.332533 0.371452
0.145293 0.130800 0.342000
0.155473 0.130066 0.371275
0.256498 0.135802 0.382403
0.377905 0.164444 0.373291
0.496430 0.206844 0.368275
0.615257 0.251259 0.367943
0.734454 0.296608 0.370161
0.853942 0.342490 0.373991
0.197632 0.254016 0.357473
0.201612 0.255854 0.369593
0.258065 0.258065 0.387097
0.387097 0.258065 0.387097
0.514091 0.264972 0.384979
0.634832 0.292871 0.380385
0.753536 0.329786 0.378529
0.871939 0.370482 0.379357
0.257782 0.380211 0.363770
0.259988 0.382132 0.369846
0.267902 0.386637 0.385375
0.387097 0.387097 0.387097
0.516129 0.387097 0.387097
0.645093 0.387335 0.387051
0.770681 0.398468 0.385732
0.891836 0.423979 0.384701
0.322106 0.506874 0.367635
0.323630 0.508605 0.371068
0.327804 0.512832 0.379831
0.387097 0.516129 0.387097
0.516129 0.516129 0.387097
0.645161 0.516129 0.387097
0.774194 0.516129 0.387097
0.903225 0.516133 0.387097
0.388760 0.633646 0.370815
0.389926 0.635183 0.372880
0.392986 0.638968 0.378098
0.402274 0.644361 0.385891
0.516129 0.645161 0.387097
0.645161 0.645161 0.387097
0.774194 0.645161 0.387097
0.903226 0.645161 0.387097
0.456812 0.760449 0.373869
0.457763 0.761822 0.375136
0.460212 0.765215 0.378313
0.464814 0.770252 0.383166
0.516129 0.774194 0.387097
0.645161 0.774194 0.387097
0.774194 0.774194 0.387097
0.903228 0.774193 0.387132
0.525761 0.887261 0.377009
0.526568 0.888500 0.377770
0.528631 0.891567 0.379697
0.532125 0.896150 0.382742
0.541497 0.901854 0.386359
0.645171 0.903224 0.387207
0.774198 0.903225 0.387161
0.903268 0.903218 0.387857
0.150701 0.061696 0.413640
0.164447 0.067324 0.451371
0.247038 0.099188 0.475791
0.366552 0.145490 0.473223
0.486366 0.192199 0.473883
0.606403 0.239117 0.476142
0.726586 0.286156 0.479422
0.846866 0.333271 0.483471
0.178872 0.136012 0.446212
0.188402 0.134204 0.475265
0.255887 0.141034 0.505791
0.378217 0.166964 0.496223
0.497500 0.207049 0.488842
0.616304 0.251707 0.485872
0.735444 0.297128 0.486039
0.854868 0.343023 0.488092
0.226880 0.255453 0.469019
0.231474 0.256518 0.483410
0.258637 0.258061 0.515871
0.387097 0.258065 0.516128
0.514467 0.264038 0.513389
0.635407 0.292257 0.505366
0.754178 0.329579 0.500259
0.872605 0.370514 0.498348
0.282826 0.380625 0.479310
0.285433 0.382174 0.487216
0.293203 0.385771 0.507609
0.387097 0.387097 0.516129
0.516129 0.387097 0.516129
0.645129 0.387214 0.516088
0.770971 0.397836 0.513452
0.892236 0.423467 0.509727
0.343709 0.506949 0.485027
0.345450 0.508480 0.489825
0.350000 0.512204 0.502096
0.387097 0.516129 0.516129
0.516129 0.516129 0.516129
0.645161 0.516129 0.516129
0.774194 0.516129 0.516129
0.902699 0.517911 0.515820
0.407674 0.633590 0.489025
0.408979 0.635008 0.492134
0.412338 0.638493 0.500009
0.419425 0.643563 0.512113
0.516129 0.645161 0.516129
0.645161 0.645161 0.516129
0.774194 0.645161 0.516129
0.903226 0.645161 0.516129
0.473618 0.760338 0.492350
0.474663 0.761635 0.494449
0.477326 0.764835 0.499733
0.481935 0.769588 0.507868
0.516132 0.774193 0.516129
0.645161 0.774194 0.516129
0.774194 0.774194 0.516129
0.903226 0.774194 0.516129
0.540889 0.887127 0.495439
0.541762 0.888314 0.496887
0.543976 0.891249 0.500517
0.547596 0.895636 0.506078
0.555576 0.901163 0.513331
0.645161 0.903226 0.516129
0.774194 0.903226 0.516129
0.903226 0.903226 0.516129
0.188376 0.077120 0.517051
0.200006 0.081881 0.548972
0.249100 0.101094 0.598342
0.368510 0.147048 0.592718
0.488115 0.193510 0.591470
0.607957 0.240248 0.592354
0.727978 0.287152 0.594497
0.848124 0.334162 0.597510
0.213396 0.143013 0.548927
0.222303 0.140920 0.576254
0.256493 0.145388 0.628677
0.378205 0.172253 0.617741
0.498514 0.208283 0.610143
0.617529 0.252219 0.605131
0.736617 0.297744 0.603464
0.855972 0.343661 0.604019
0.258121 0.257966 0.577632
0.263076 0.258345 0.593328
0.280059 0.258373 0.633450
0.386921 0.259032 0.644350
0.514156 0.265748 0.640656
0.636089 0.291427 0.631145
0.754942 0.329287 0.623029
0.873400 0.370531 0.618697
0.310632 0.381575 0.592529
0.313596 0.382745 0.601812
0.321989 0.385376 0.625725
0.387097 0.387097 0.645161
0.516129 0.387097 0.645161
0.645154 0.387126 0.645147
0.771314 0.397035 0.641581
0.892716 0.422809 0.635482
0.368351 0.507302 0.600855
0.370328 0.508616 0.606775
0.375490 0.511780 0.621892
0.392008 0.515929 0.643976
0.516129 0.516129 0.645161
0.645161 0.516129 0.645161
0.774194 0.516129 0.645161
0.902805 0.517592 0.644743
0.429637 0.633686 0.606284
0.431089 0.634969 0.610286
0.434784 0.638114 0.620424
0.441279 0.642706 0.636179
0.516129 0.645161 0.645161
0.645161 0.645161 0.645161
0.774194 0.645161 0.645161
0.903226 0.645161 0.645161
0.493369 0.760312 0.610375
0.494516 0.761520 0.613195
0.497421 0.764497 0.620297
0.502185 0.768914 0.631266
0.520171 0.773991 0.644600
0.645161 0.774194 0.645161
0.774194 0.774194 0.645161
0.903226 0.774194 0.645161
0.558815 0.887040 0.613832
0.559763 0.888165 0.615876
0.562153 0.890945 0.621006
0.565969 0.895098 0.628884
0.572866 0.900382 0.639315
0.645161 0.903226 0.645161
0.774194 0.903226 0.645161
0.903226 0.903226 0.645161
0.226051 0.092544 0.620461
0.236169 0.096686 0.648233
0.259905 0.106404 0.713382
0.370557 0.148782 0.713686
0.490019 0.194993 0.710366
0.609688 0.241541 0.709803
0.729549 0.288298 0.710825
0.849557 0.335192 0.712886
0.248548 0.151417 0.651068
0.256832 0.149510 0.676280
0.279260 0.153434 0.731895
0.378616 0.176795 0.739678
0.499121 0.212423 0.730719
0.618872 0.252898 0.725381
0.737942 0.298438 0.721987
0.857232 0.344391 0.721155
0.290585 0.261599 0.684000
0.295711 0.261406 0.700327
0.310947 0.260131 0.742549
0.386584 0.261479 0.770899
0.512995 0.271604 0.764806
0.636504 0.291799 0.756909
0.755810 0.328888 0.746583
0.874310 0.370521 0.739961
0.340320 0.383180 0.703529
0.343560 0.383985 0.713814
0.352464 0.385690 0.740246
0.387955 0.387091 0.773807
0.516129 0.387097 0.774194
0.645126 0.387240 0.774108
0.771701 0.396057 0.770084
0.893269 0.421990 0.761785
0.395264 0.508033 0.714945
0.397466 0.509120 0.721777
0.403224 0.511709 0.739187
0.415707 0.515185 0.765853
0.516129 0.516129 0.774194
0.645161 0.516129 0.774194
0.774194 0.516129 0.774194
0.902916 0.517244 0.773763
0.454025 0.634005 0.722283
0.455633 0.635144 0.727049
0.459728 0.637921 0.739113
0.466680 0.641947 0.757867
0.516129 0.645161 0.774194
0.645161 0.645161 0.774194
0.774194 0.645161 0.774194
0.903226 0.645161 0.774194
0.515564 0.760423 0.727541
0.516817 0.761533 0.730994
0.519977 0.764264 0.739692
0.525000 0.768306 0.753143
0.535804 0.773273 0.770751
0.645161 0.774194 0.774194
0.774194 0.774194 0.774194
0.903226 0.774194 0.774194
0.579135 0.887038 0.731701
0.580161 0.888094 0.734275
0.582742 0.890702 0.740736
0.586793 0.894590 0.750669
0.593211 0.899560 0.763928
0.645161 0.903226 0.774194
0.774194 0.903226 0.774194
0.903226 0.903226 0.774194
0.263726 0.107968 0.723871
0.272708 0.111645 0.748524
0.294044 0.120380 0.807087
0.372624 0.150658 0.835950
0.492022 0.196622 0.830438
0.611553 0.242976 0.828325
0.731267 0.289579 0.828181
0.851140 0.336348 0.829296
0.284158 0.160906 0.753060
0.291864 0.159459 0.776167
0.311223 0.163717 0.828173
0.379320 0.180755 0.862248
0.499966 0.216292 0.851801
0.619845 0.256212 0.845267
0.739392 0.299195 0.841418
0.858623 0.345202 0.839226
0.323868 0.266314 0.788760
0.329035 0.265660 0.805269
0.343531 0.263527 0.847713
0.387484 0.264456 0.895645
0.512205 0.277103 0.888293
0.635543 0.298482 0.879265
0.756766 0.328355 0.870828
0.875318 0.370470 0.861955
0.371315 0.385506 0.812567
0.374754 0.385974 0.823549
0.384014 0.386831 0.851699
0.406271 0.387218 0.893504
0.516108 0.387245 0.903093
0.644741 0.388952 0.901932
0.771903 0.395734 0.898504
0.893887 0.420989 0.888576
0.423873 0.509216 0.827305
0.426269 0.510080 0.834867
0.432516 0.512102 0.854099
0.444355 0.514753 0.883867
0.516129 0.516129 0.903226
0.645161 0.516129 0.903226
0.774194 0.516129 0.903226
0.903021 0.516892 0.902862
0.480333 0.634612 0.836900
0.482097 0.635601 0.842315
0.486600 0.637998 0.856007
0.494142 0.641436 0.877259
0.519786 0.645031 0.902193
0.645161 0.645161 0.903226
0.774194 0.645161 0.903226
0.903226 0.645161 0.903226
0.539777 0.760721 0.843653
0.541141 0.761727 0.847662
0.544582 0.764197 0.857759
0.550034 0.767833 0.873364
0.559598 0.772344 0.894120
0.645161 0.774194 0.903226
0.774194 0.774194 0.903226
0.903226 0.774194 0.903226
0.601491 0.887160 0.848798
0.602598 0.888142 0.851847
0.605376 0.890564 0.859501
0.609689 0.894166 0.871270
0.616007 0.898772 0.887048
0.645627 0.903204 0.903141
0.774194 0.903226 0.903226
0.903226 0.903226 0.903226
