ProPhoto to sRGB.cube
# input/output colorspace: ProPhoto, gamma 1.8
# github.com/abpy/gamut-fix, Aaron Buchler
# Gamut compression/mapping
# Saturation Input gamut: ProPhoto
# Brightness Input gamut: ACEScg
# Output gamut: sRGB
LUT_3D_SIZE 8
DOMAIN_MIN 0.000000 0.000000 0.000000
DOMAIN_MAX 0.903226 0.903226 0.903226
0.000000 0.000000 0.000000
0.120631 0.047361 0.017789
0.241260 0.094721 0.035578
0.360313 0.141462 0.053134
0.470218 0.184612 0.069342
0.561391 0.220407 0.082787
0.628863 0.246897 0.092737
0.674612 0.264858 0.099483
0.073708 0.126566 0.041558
0.130114 0.128823 0.043116
0.258421 0.129061 0.046246
0.379641 0.149050 0.055985
0.484823 0.190345 0.071495
0.571634 0.224428 0.084297
0.635499 0.249502 0.093715
0.678717 0.266470 0.100088
0.147416 0.253131 0.083116
0.149423 0.256579 0.084248
0.260229 0.257647 0.086233
0.388276 0.257893 0.088996
0.507156 0.254994 0.091272
0.595376 0.238983 0.089313
0.651070 0.255616 0.096011
0.688358 0.270255 0.101510
0.221123 0.379697 0.124674
0.222579 0.382197 0.125495
0.263323 0.386205 0.127288
0.390343 0.386470 0.129349
0.516546 0.386318 0.131819
0.615762 0.378387 0.131713
0.675476 0.355503 0.126344
0.705735 0.315993 0.115442
0.294831 0.506263 0.166232
0.295989 0.508251 0.166885
0.298847 0.513158 0.168496
0.393251 0.515027 0.170327
0.520458 0.515294 0.172466
0.636278 0.512876 0.173944
0.706607 0.498165 0.170894
0.740493 0.469954 0.162979
0.368443 0.632664 0.207736
0.369420 0.634341 0.208286
0.371834 0.638487 0.209648
0.396860 0.643532 0.211568
0.523268 0.643850 0.213398
0.649528 0.643913 0.215499
0.739918 0.636027 0.214712
0.780932 0.614937 0.208937
0.438592 0.753118 0.247287
0.439501 0.754680 0.247800
0.441771 0.758578 0.249080
0.445233 0.764522 0.251031
0.525022 0.769243 0.253540
0.652901 0.771696 0.256166
0.768572 0.768095 0.256949
0.824204 0.751681 0.252780
0.498394 0.855807 0.281005
0.499293 0.857351 0.281512
0.501571 0.861263 0.282796
0.505151 0.867409 0.284815
0.516158 0.876000 0.287706
0.648920 0.885547 0.292477
0.780042 0.894722 0.297368
0.866021 0.877092 0.293206
0.037675 0.015424 0.103410
0.121591 0.048050 0.118471
0.241803 0.095109 0.122040
0.360908 0.141819 0.127911
0.471130 0.185066 0.134620
0.562658 0.220984 0.140577
0.630367 0.247555 0.144584
0.676196 0.265540 0.146332
0.085927 0.126737 0.121257
0.129032 0.129032 0.129032
0.256894 0.132823 0.128577
0.375646 0.164649 0.129336
0.483586 0.202244 0.134600
0.572214 0.234836 0.141085
0.637271 0.259216 0.146634
0.681187 0.275802 0.150636
0.152271 0.253483 0.124623
0.154938 0.256751 0.127722
0.258065 0.258065 0.129032
0.387169 0.258053 0.131323
0.507259 0.255177 0.136660
0.594740 0.258627 0.141255
0.652904 0.273272 0.146268
0.691226 0.284732 0.149985
0.221772 0.380295 0.127990
0.224355 0.382651 0.139239
0.258981 0.386942 0.140627
0.387760 0.386969 0.143006
0.515408 0.386619 0.153243
0.616012 0.378761 0.158975
0.676480 0.355953 0.158664
0.707114 0.316503 0.152951
0.295123 0.506765 0.166397
0.297035 0.508664 0.174265
0.300636 0.513518 0.175730
0.389977 0.515614 0.176935
0.518250 0.515720 0.180041
0.635617 0.513293 0.187165
0.707071 0.498646 0.189042
0.741470 0.470443 0.185607
0.368685 0.633079 0.207872
0.370196 0.634696 0.213507
0.372762 0.638828 0.214785
0.393300 0.644099 0.216554
0.520675 0.644327 0.217845
0.647828 0.644315 0.220951
0.739809 0.636542 0.224115
0.781550 0.615466 0.222114
0.438774 0.753431 0.247390
0.440117 0.754958 0.251945
0.442450 0.758851 0.253173
0.446647 0.764766 0.255043
0.522201 0.769646 0.257315
0.650735 0.772070 0.259566
0.767730 0.768654 0.261395
0.824514 0.752284 0.260117
0.498512 0.856009 0.281071
0.499793 0.857541 0.285040
0.502106 0.861451 0.286288
0.505878 0.867595 0.288251
0.517919 0.876175 0.291064
0.646523 0.885772 0.295535
0.778198 0.894982 0.300147
0.866048 0.877900 0.297132
0.075350 0.030848 0.206820
0.123519 0.049594 0.237895
0.243183 0.096099 0.236942
0.362479 0.142759 0.239675
0.473669 0.186323 0.243536
0.566340 0.222654 0.247194
0.634975 0.249570 0.249721
0.681389 0.267773 0.250822
0.113440 0.127727 0.234510
0.129318 0.129030 0.257936
0.257234 0.132019 0.256695
0.376652 0.164632 0.250110
0.485975 0.203062 0.248870
0.575882 0.236260 0.249751
0.641813 0.261027 0.250588
0.686173 0.277810 0.250587
0.171855 0.253474 0.242514
0.175000 0.256102 0.251048
0.258065 0.258065 0.258065
0.387097 0.258065 0.258065
0.507163 0.263563 0.256789
0.596535 0.280348 0.254112
0.657952 0.296074 0.251967
0.698077 0.307394 0.250419
0.236809 0.380169 0.246175
0.238663 0.382418 0.249866
0.258066 0.387097 0.258064
0.387097 0.387097 0.258065
0.515266 0.386895 0.258017
0.618456 0.379697 0.256330
0.680552 0.359590 0.252620
0.714819 0.347396 0.249471
0.304541 0.506966 0.249246
0.305869 0.508863 0.251004
0.309876 0.513501 0.255444
0.387097 0.516129 0.258065
0.516129 0.516129 0.258065
0.635775 0.514045 0.257871
0.709647 0.499828 0.257877
0.745104 0.471789 0.256073
0.373553 0.633606 0.252384
0.374608 0.635254 0.253184
0.377660 0.639286 0.257161
0.391607 0.644821 0.259842
0.516251 0.645138 0.259773
0.644877 0.645034 0.261634
0.740573 0.637699 0.267966
0.784054 0.616774 0.270259
0.439800 0.754155 0.253909
0.441926 0.755607 0.266729
0.445289 0.759398 0.276693
0.449951 0.765267 0.278566
0.516198 0.770496 0.280229
0.646100 0.772866 0.281014
0.766156 0.769941 0.284691
0.825938 0.753746 0.289815
0.498804 0.856510 0.281236
0.500732 0.858016 0.292058
0.504075 0.861885 0.302270
0.508069 0.868015 0.304124
0.520966 0.876569 0.306736
0.641036 0.886276 0.310217
0.773961 0.895569 0.313728
0.866457 0.879915 0.313622
0.113026 0.046272 0.310230
0.129953 0.053202 0.356691
0.245010 0.097497 0.355183
0.364486 0.144036 0.355403
0.477211 0.188104 0.357539
0.571697 0.225094 0.359949
0.641802 0.252556 0.361690
0.689139 0.271104 0.362423
0.145293 0.130800 0.342000
0.155473 0.130066 0.371275
0.256498 0.135802 0.382403
0.377821 0.164413 0.373289
0.489297 0.204176 0.367987
0.581341 0.238377 0.366342
0.648828 0.263826 0.365632
0.694103 0.281007 0.364775
0.197632 0.254016 0.357473
0.201612 0.255854 0.369593
0.258065 0.258065 0.387097
0.387097 0.258065 0.387097
0.509731 0.263597 0.384805
0.602149 0.281654 0.378845
0.665367 0.298341 0.373858
0.706355 0.310183 0.369775
0.257782 0.380211 0.363770
0.259988 0.382132 0.369846
0.267902 0.386637 0.385375
0.387097 0.387097 0.387097
0.515862 0.387034 0.387086
0.623286 0.381285 0.386017
0.688470 0.373033 0.381347
0.725467 0.369326 0.374993
0.322106 0.506874 0.367635
0.323630 0.508605 0.371068
0.327804 0.512832 0.379831
0.387097 0.516129 0.387097
0.516129 0.516129 0.387097
0.638584 0.514672 0.386782
0.716371 0.501548 0.383973
0.753380 0.474111 0.378235
0.388673 0.633491 0.370783
0.389848 0.635042 0.372851
0.392926 0.638859 0.378075
0.402240 0.644299 0.385878
0.516129 0.645161 0.387097
0.645037 0.645138 0.387091
0.745414 0.638962 0.385504
0.791134 0.618697 0.380336
0.453260 0.754195 0.372385
0.454286 0.755699 0.373684
0.456938 0.759446 0.376950
0.461907 0.765116 0.381959
0.514321 0.770733 0.386286
0.644680 0.773092 0.386838
0.767694 0.771180 0.386322
0.831394 0.755741 0.381896
0.508352 0.856936 0.368950
0.509322 0.858456 0.369789
0.511841 0.862307 0.371934
0.516195 0.868355 0.375382
0.527265 0.876797 0.379737
0.636962 0.886588 0.382806
0.770887 0.895953 0.385232
0.869736 0.882846 0.382107
0.150701 0.061696 0.413640
0.164447 0.067324 0.451371
0.247038 0.099188 0.475791
0.366552 0.145490 0.473223
0.481173 0.190166 0.472827
0.578193 0.228077 0.473979
0.650356 0.256306 0.474978
0.698985 0.275337 0.475337
0.178872 0.136012 0.446212
0.188402 0.134204 0.475265
0.255887 0.141034 0.505791
0.378217 0.166964 0.496223
0.492924 0.205332 0.487995
0.587946 0.240930 0.483851
0.657625 0.267334 0.481655
0.704186 0.285070 0.479942
0.226880 0.255453 0.469019
0.231474 0.256518 0.483410
0.258637 0.258061 0.515871
0.387097 0.258065 0.516128
0.512280 0.263345 0.513125
0.608910 0.283129 0.503824
0.674698 0.301166 0.496138
0.716981 0.313754 0.490255
0.282826 0.380625 0.479310
0.285433 0.382174 0.487216
0.293203 0.385771 0.507609
0.387097 0.387097 0.516129
0.516119 0.387094 0.516129
0.628953 0.382716 0.515436
0.698106 0.375205 0.510100
0.736679 0.372192 0.502048
0.343709 0.506949 0.485027
0.345450 0.508480 0.489825
0.350000 0.512204 0.502096
0.387097 0.516129 0.516129
0.516129 0.516129 0.516129
0.641464 0.515309 0.515988
0.725025 0.503693 0.514012
0.764994 0.479303 0.509291
0.407601 0.633454 0.489003
0.408914 0.634886 0.492114
0.412290 0.638402 0.499994
0.419398 0.643513 0.512105
0.516129 0.645161 0.516129
0.645158 0.645161 0.516129
0.751949 0.640380 0.515152
0.801720 0.621142 0.511261
0.470292 0.754309 0.491203
0.471413 0.755741 0.493330
0.474279 0.759303 0.498688
0.479244 0.764691 0.506950
0.514303 0.770692 0.515477
0.644668 0.773065 0.515919
0.770689 0.772320 0.515752
0.840952 0.758121 0.512512
0.524209 0.857383 0.489107
0.525250 0.858862 0.490624
0.527926 0.862605 0.494444
0.532398 0.868475 0.500345
0.541957 0.876660 0.508189
0.636884 0.886453 0.512610
0.770957 0.895837 0.514574
0.877755 0.886450 0.512390
0.188376 0.077120 0.517051
0.200006 0.081881 0.548972
0.249094 0.101092 0.598325
0.368509 0.147048 0.592714
0.488115 0.193510 0.591469
0.584734 0.231145 0.584658
0.659667 0.260409 0.584610
0.710030 0.280092 0.584407
0.213396 0.143013 0.548927
0.222303 0.140920 0.576254
0.256447 0.145374 0.628538
0.378192 0.172248 0.617689
0.498511 0.208282 0.610128
0.594508 0.243437 0.597464
0.667170 0.271129 0.593573
0.715485 0.289615 0.590890
0.258121 0.257966 0.577632
0.263076 0.258345 0.593328
0.280035 0.258368 0.633372
0.386887 0.259023 0.644212
0.514139 0.265742 0.640567
0.615464 0.284265 0.624173
0.684787 0.304113 0.613484
0.728878 0.317703 0.605737
0.310632 0.381575 0.592529
0.313596 0.382745 0.601812
0.321988 0.385375 0.625722
0.387089 0.387095 0.645131
0.516125 0.387096 0.645139
0.634222 0.384069 0.641598
0.708579 0.377446 0.634005
0.749296 0.375328 0.623648
0.368351 0.507302 0.600855
0.370328 0.508616 0.606775
0.375490 0.511780 0.621892
0.392008 0.515929 0.643976
0.516129 0.516129 0.645161
0.643702 0.515804 0.644798
0.734545 0.506063 0.641766
0.777948 0.482434 0.636140
0.429577 0.633570 0.606268
0.431036 0.634867 0.610272
0.434746 0.638041 0.620414
0.441260 0.642669 0.636173
0.516129 0.645161 0.645161
0.645161 0.645161 0.645161
0.758848 0.641870 0.644461
0.814074 0.624007 0.640577
0.490286 0.754535 0.609450
0.491510 0.755884 0.612294
0.494617 0.759233 0.619460
0.499727 0.764285 0.630537
0.518357 0.770496 0.644056
0.644654 0.773032 0.644980
0.773019 0.773383 0.645028
0.852021 0.760900 0.642633
0.542946 0.857971 0.608626
0.544065 0.859400 0.610733
0.546925 0.863016 0.616031
0.551585 0.868675 0.624205
0.559956 0.876549 0.635127
0.636803 0.886287 0.642191
0.770959 0.895682 0.643834
0.886618 0.890923 0.642886
0.226006 0.092525 0.620336
0.235996 0.096615 0.647756
0.258802 0.105952 0.710354
0.369777 0.148458 0.710840
0.489496 0.194774 0.707971
0.607783 0.240787 0.707618
0.668221 0.264232 0.684916
0.720907 0.284793 0.683885
0.248388 0.151369 0.650611
0.256448 0.149392 0.675190
0.277831 0.152972 0.727823
0.377370 0.176336 0.735186
0.498355 0.212119 0.727239
0.616717 0.252063 0.722548
0.675834 0.274545 0.695316
0.726550 0.294045 0.691573
0.290272 0.261531 0.683026
0.295210 0.261295 0.698777
0.309645 0.259831 0.738553
0.384765 0.260981 0.764443
0.511763 0.271194 0.759284
0.633993 0.290906 0.752435
0.693708 0.306442 0.718736
0.740390 0.321389 0.709370
0.340025 0.383127 0.702514
0.343165 0.383912 0.712459
0.351712 0.385550 0.737689
0.386585 0.386816 0.768945
0.515082 0.386833 0.769527
0.643630 0.386804 0.769706
0.717604 0.379008 0.744292
0.761379 0.378059 0.731612
0.395093 0.508004 0.714290
0.397254 0.509086 0.720967
0.402879 0.511652 0.737879
0.415071 0.515077 0.763449
0.515521 0.516007 0.771486
0.644673 0.516012 0.771693
0.742652 0.508054 0.758166
0.790453 0.485394 0.749316
0.453967 0.633996 0.722038
0.455563 0.635133 0.726756
0.459623 0.637903 0.738672
0.466498 0.641917 0.757112
0.515886 0.645120 0.773114
0.644983 0.645126 0.773243
0.764452 0.643059 0.768365
0.826392 0.626851 0.759807
0.512544 0.754890 0.725924
0.513867 0.756146 0.729366
0.517210 0.759256 0.738038
0.522540 0.763929 0.751464
0.533857 0.769895 0.769128
0.644522 0.772974 0.773421
0.774194 0.774194 0.774194
0.863428 0.763813 0.768327
0.564025 0.858702 0.726829
0.565223 0.860076 0.729444
0.568270 0.863546 0.736015
0.573146 0.868966 0.746147
0.580946 0.876484 0.759753
0.636599 0.886077 0.771025
0.770852 0.895482 0.772775
0.895372 0.896344 0.772847
0.262324 0.107394 0.720021
0.270513 0.110747 0.742500
0.288926 0.118285 0.793038
0.366660 0.148191 0.816658
0.487763 0.194845 0.813106
0.607643 0.241355 0.812318
0.706681 0.279872 0.805792
0.730071 0.288794 0.768818
0.281981 0.160219 0.746914
0.288720 0.158439 0.767315
0.305041 0.161652 0.810770
0.371600 0.177962 0.837523
0.494690 0.214226 0.830469
0.615271 0.254373 0.826372
0.714888 0.289685 0.817887
0.735763 0.297695 0.776855
0.320821 0.265601 0.779549
0.325186 0.264747 0.793674
0.337042 0.261928 0.828288
0.377597 0.261784 0.864387
0.505095 0.274779 0.859911
0.629713 0.296362 0.854269
0.734390 0.320136 0.846201
0.749714 0.324102 0.795538
0.368191 0.384901 0.802270
0.371126 0.385266 0.811629
0.378866 0.385810 0.834900
0.398353 0.385579 0.867454
0.509041 0.385470 0.875089
0.638899 0.387206 0.875032
0.753535 0.389816 0.873103
0.770847 0.379640 0.819454
0.421317 0.508774 0.818071
0.423432 0.509589 0.824644
0.428876 0.511467 0.841062
0.439228 0.513843 0.865593
0.510575 0.515020 0.881253
0.640675 0.515057 0.881986
0.763846 0.513403 0.882655
0.800113 0.487499 0.840812
0.478614 0.634334 0.830101
0.480238 0.635300 0.834981
0.484357 0.637633 0.847202
0.491209 0.640955 0.865827
0.516012 0.644392 0.887194
0.642092 0.644547 0.888726
0.770076 0.644235 0.889477
0.835967 0.628995 0.858608
0.538145 0.759086 0.839649
0.539450 0.760072 0.843430
0.542733 0.762490 0.852916
0.547919 0.766052 0.867481
0.557109 0.770487 0.886683
0.643073 0.772825 0.895500
0.772690 0.773450 0.896283
0.872439 0.766232 0.878793
0.585411 0.859349 0.836097
0.586661 0.860658 0.839047
0.589833 0.863960 0.846477
0.594862 0.869106 0.857999
0.602416 0.876222 0.873727
0.635010 0.885554 0.891129
0.769769 0.895085 0.896560
0.903226 0.903226 0.903226
