ProPhoto to sRGB saturation only.cube
# input/output colorspace: ProPhoto, gamma 1.8
# github.com/abpy/gamut-fix, Aaron Buchler
# Gamut compression/mapping
# Saturation Input gamut: ProPhoto
# Brightness (no compression)
# Output gamut: sRGB
LUT_3D_SIZE 5
DOMAIN_MIN 0.000000 0.000000 0.000000
DOMAIN_MAX 0.903226 0.903226 0.903226
0.000000 0.000000 0.000000
0.211104 0.082881 0.031131
0.422208 0.165763 0.062262
0.633312 0.248644 0.093393
0.844416 0.331525 0.124524
0.128989 0.221490 0.072726
0.227700 0.225441 0.075454
0.452236 0.225857 0.080931
0.666740 0.261768 0.098322
0.871192 0.342037 0.128472
0.257977 0.442980 0.145453
0.261491 0.449013 0.147434
0.455401 0.450882 0.150908
0.679508 0.451318 0.155746
0.904472 0.451714 0.161862
0.386966 0.664470 0.218179
0.389513 0.668844 0.219616
0.460816 0.675859 0.222754
0.683101 0.676323 0.226361
0.907002 0.676771 0.230973
0.515954 0.885960 0.290906
0.517980 0.889438 0.292048
0.522982 0.898026 0.294868
0.688189 0.901298 0.298073
0.910801 0.901764 0.301815
0.065932 0.026992 0.180968
0.212785 0.084087 0.207324
0.423155 0.166441 0.213569
0.633926 0.249100 0.224015
0.844823 0.331849 0.237364
0.150373 0.221790 0.212199
0.225806 0.225806 0.225806
0.449564 0.232440 0.225010
0.658910 0.288686 0.226452
0.866254 0.361392 0.237333
0.266474 0.443595 0.218090
0.271141 0.449313 0.223514
0.451613 0.451613 0.225806
0.677553 0.451594 0.229816
0.903497 0.451659 0.240600
0.388101 0.665517 0.223983
0.392621 0.669640 0.243668
0.453217 0.677149 0.246097
0.678581 0.677195 0.250261
0.904558 0.677191 0.268393
0.516466 0.886839 0.291194
0.519811 0.890161 0.304964
0.526112 0.898656 0.307528
0.682460 0.902324 0.309636
0.906938 0.902509 0.315072
0.131863 0.053984 0.361935
0.216158 0.086790 0.416317
0.425570 0.168174 0.414648
0.635763 0.250387 0.419494
0.846311 0.332882 0.427139
0.198520 0.223522 0.410392
0.226307 0.225803 0.451388
0.450159 0.231033 0.449216
0.659906 0.288382 0.437727
0.867248 0.361636 0.436444
0.300746 0.443580 0.424399
0.306250 0.448178 0.439334
0.451613 0.451613 0.451613
0.677419 0.451613 0.451613
0.899128 0.464880 0.450020
0.414416 0.665296 0.430807
0.417660 0.669231 0.437266
0.451616 0.677419 0.451613
0.677419 0.677419 0.451613
0.903226 0.677419 0.451613
0.532947 0.887190 0.436181
0.535270 0.890510 0.439257
0.542283 0.898627 0.447027
0.677419 0.903226 0.451613
0.903226 0.903226 0.451613
0.197795 0.080976 0.542903
0.227417 0.093103 0.624210
0.428767 0.170619 0.621570
0.638355 0.252261 0.621972
0.848467 0.334407 0.626244
0.254262 0.228899 0.598500
0.272078 0.227615 0.649731
0.448871 0.237654 0.669205
0.661333 0.287777 0.653260
0.868752 0.361978 0.644481
0.345856 0.444528 0.625577
0.352821 0.447745 0.646788
0.451613 0.451613 0.677419
0.677419 0.451613 0.677419
0.899659 0.463700 0.673714
0.451119 0.665370 0.636598
0.454979 0.668731 0.647230
0.468828 0.676614 0.674407
0.677419 0.677419 0.677419
0.903226 0.677419 0.677419
0.563685 0.887030 0.643361
0.566352 0.890058 0.649369
0.573657 0.897455 0.664705
0.677419 0.903226 0.677419
0.903226 0.903226 0.677419
0.263726 0.107968 0.723871
0.287783 0.117816 0.789900
0.432317 0.173579 0.832634
0.641465 0.254607 0.828140
0.851140 0.336348 0.829296
0.313027 0.238021 0.780871
0.329704 0.234858 0.831714
0.447802 0.246810 0.885134
0.661879 0.292187 0.868390
0.870625 0.362336 0.855474
0.397040 0.447044 0.820784
0.405079 0.448906 0.845968
0.452615 0.451607 0.902775
0.677419 0.451614 0.903225
0.900318 0.462067 0.898431
0.494946 0.666093 0.838793
0.499508 0.668804 0.852628
0.513106 0.675099 0.888315
0.677419 0.677419 0.903226
0.903226 0.677419 0.903226
0.601491 0.887160 0.848798
0.604538 0.889840 0.857194
0.612500 0.896356 0.878667
0.677419 0.903226 0.903226
0.903226 0.903226 0.903226
